!!!!SEGMENT: pl-cz--ii-241--007_zeidler-jozef--missa-d-dona-nobis.krn
!!!cenid: 18xx:302
!!!COM: Zeidler, Józef
!!!COM-rismid: pe30003401
!!!CDT: ~1744-1806
!!!CNT: Polish
!!!OPR: Missa D
!!!OTL: Dona nobis
!!!OMV: 007
!!!PDT: 1818
!!!AGN: Sacred; Mass
!!!SMS-siglum: PL-CZ
!!!SMS-shelfmark: II-241
!!!SMS-shelfwork: 001-007 M
!!!NIFC-rismid:
!!!URL-scan: http://repozytorium.nifc.pl/skany/pl-cz-nut--ii-241
!!!ONB-nifc: UWAGA: części Mszy: Kyrie, Gloria, Patrem, Sanctus, Benedictus, Agnus dei. Dona nobis
!!!AIN: 1 alto 1 bass 2 empty 1 organ 1 tenor 2 violn 1 vox
!!!key:
**kern	**fb	**dynam	**kern	**text	**kern	**text	**kern	**text	**kern	**text	**dynam	**kern	**dynam	**kern	**dynam	**kern	**dynam	**kern	**dynam
*part9	*	*part9	*part6	*part6	*part5	*part5	*part4	*part4	*part3	*part3	*part3	*part8	*part8	*part7	*part7	*part2	*part2	*part1	*part1
*staff9	*	*	*staff6	*staff6	*staff5	*staff5	*staff4	*staff4	*staff3	*staff3	*	*staff8	*	*staff7	*	*staff2	*	*staff1	*
*Iorgan	*	*	*Ibass	*	*Itenor	*	*Ialto	*	*Ivox	*	*	*Ivioln	*	*Ivioln	*	*Iempty	*	*Iempty	*
*I"Organo	*	*	*I"Basso.	*	*I"Tenore	*	*I"Alto	*	*I"Canto.	*	*	*I"Violino Secundo	*	*I"Violino Primo	*	*I"Cornu Secundo in D.	*	*I"Cornu Primo in D.	*
*I'Org.	*	*	*I'B.	*	*I'T.	*	*I'A.	*	*I'C.	*	*	*I'V-no II	*	*I'V-no I	*	*I'C. II in D	*	*I'C. I in D	*
*group4	*	*	*group3	*	*group3	*	*group3	*	*group3	*	*	*group2	*	*group2	*	*group1	*	*group1	*
*clefF4	*	*	*clefF4	*	*clefC4	*	*clefC3	*	*clefC1	*	*	*clefG2	*	*clefG2	*	*clefG2	*	*clefG2	*
*	*	*	*	*	*	*	*	*	*	*	*	*	*	*	*	*ITrd6c10	*	*ITrd6c10	*
*k[f#c#]	*	*	*k[f#c#]	*	*k[f#c#]	*	*k[f#c#]	*	*k[f#c#]	*	*	*k[f#c#]	*	*k[f#c#]	*	*k[f#c#]	*	*k[f#c#]	*
*D:	*	*	*D:	*	*D:	*	*D:	*	*D:	*	*	*D:	*	*D:	*	*D:	*	*D:	*
*M2/4	*	*	*M2/4	*	*M2/4	*	*M2/4	*	*M2/4	*	*	*M2/4	*	*M2/4	*	*M2/4	*	*M2/4	*
=1	=1	=1	=1	=1	=1	=1	=1	=1	=1	=1	=1	=1	=1	=1	=1	=1	=1	=1	=1
*	*	*below	*	*	*	*	*	*	*	*	*	*	*	*	*	*	*	*	*
!LO:TX:a:t=Solo	!	!	!LO:TX:a:t=16.	!	!LO:TX:a:t=16.	!	!LO:TX:a:t=Solo	!	!LO:TX:a:t=16	!	!	!	!	!	!	!LO:TX:a:t=16.	!	!LO:TX:a:t=16	!
!LO:TX:a:t=Allo	!	!	!	!	!LO:TX:a:t=allo	!	!LO:TX:a:t=alllo	!	!LO:TX:a:t=Allo	!	!	!LO:TX:a:t=allo	!LO:TX:a:t=p:	!LO:TX:a:t=Allo	!LO:DY:t=p:	!LO:TX:a:t=allo	!	!LO:TX:a:t=allo	!
!	!	!	!LO:TX:a:t=problem: Caudy po lewej stronie	!	!LO:TX:a:t=problem: Caudy po lewej stronie	!	!LO:TX:a:t=problem: Caudy po lewej stronie	!	!LO:TX:a:t=problem: Caudy po lewej stronie	!	!	!	!LO:DY:b	!	!LO:DY:b	!LO:TX:a:t=problem: Caudy po lewej stronie	!	!LO:TX:a:t=problem: Caudy po lewej stronie	!
!LO:TX:a:t=problem:caudy po lewej stsronie	!	!	!LO:N:vis=00	!	!	!	!	!	!	!	!	!	!	!	!	!	!	!	!
4D\	.	p	0r	.	2r	.	4.a\	Do-	2r	.	.	4.f#/	p	4.a/	p	2r	.	2r	.
4DD/	.	.	.	.	.	.	.	.	.	.	.	.	.	.	.	.	.	.	.
.	.	.	.	.	.	.	16f#\LL	-na	.	.	.	16d/LL	.	16f#/LL	.	.	.	.	.
.	.	.	.	.	.	.	16g\JJ	.	.	.	.	16e/JJ	.	16g/JJ	.	.	.	.	.
=2	=2	=2	=2	=2	=2	=2	=2	=2	=2	=2	=2	=2	=2	=2	=2	=2	=2	=2	=2
4r	.	.	.	.	2r	.	8a\L	no-	2r	.	.	8f#/L	.	(8a/L	.	2r	.	2r	.
.	.	.	.	.	.	.	8f#\J	.	.	.	.	8d/	.	8f#/)	.	.	.	.	.
4BB/	.	.	.	.	.	.	8b\L	-bis	.	.	.	8g/	.	(8b/	.	.	.	.	.
.	.	.	.	.	.	.	8a\J	.	.	.	.	8f#/J	.	8a/J)	.	.	.	.	.
=3	=3	=3	=3	=3	=3	=3	=3	=3	=3	=3	=3	=3	=3	=3	=3	=3	=3	=3	=3
4E\	4	.	.	.	2r	.	8a\L	pa-	2r	.	.	8f#/L	.	8a/L	.	2r	.	2r	.
.	6	.	.	.	.	.	8g\	.	.	.	.	8e/	.	8g/	.	.	.	.	.
4EE/	.	.	.	.	.	.	8f#\	.	.	.	.	8d#X/	.	8f#/	.	.	.	.	.
.	.	.	.	.	.	.	8e\J	.	.	.	.	8e/J	.	8e/J	.	.	.	.	.
=4	=4	=4	=4	=4	=4	=4	=4	=4	=4	=4	=4	=4	=4	=4	=4	=4	=4	=4	=4
.	.	.	.	.	.	.	8qqd#X/	.	.	.	.	.	.	8qqd#X/	.	.	.	.	.
8E\L	.	.	.	.	2r	.	4e\	-cem	2r	.	.	4e/	.	4e/	.	2r	.	2r	.
8D\	.	.	.	.	.	.	.	.	.	.	.	.	.	.	.	.	.	.	.
8C#\	.	.	.	.	.	.	4r	.	.	.	.	4r	.	4r	.	.	.	.	.
8BB\J	.	.	.	.	.	.	.	.	.	.	.	.	.	.	.	.	.	.	.
=5	=5	=5	=5	=5	=5	=5	=5	=5	=5	=5	=5	=5	=5	=5	=5	=5	=5	=5	=5
!	!	!	!LO:N:vis=00	!	!	!	!	!	!	!	!	!	!	!	!	!	!	!	!
4AA/	7	.	0r	.	2r	.	4.g\	Do-	2r	.	.	4.e/	.	4.g/	.	2r	.	2r	.
4A\	.	.	.	.	.	.	.	.	.	.	.	.	.	.	.	.	.	.	.
.	.	.	.	.	.	.	16e\LL	-na	.	.	.	16c#/LL	.	16e/LL	.	.	.	.	.
.	.	.	.	.	.	.	16f#\JJ	.	.	.	.	16d/JJ	.	16f#/JJ	.	.	.	.	.
=6	=6	=6	=6	=6	=6	=6	=6	=6	=6	=6	=6	=6	=6	=6	=6	=6	=6	=6	=6
4r	.	.	.	.	2r	.	8g\L	no-	2r	.	.	8e/L	.	8g/L	.	2r	.	2r	.
.	.	.	.	.	.	.	8e\J	.	.	.	.	8c#/	.	8e/	.	.	.	.	.
4AA/	.	.	.	.	.	.	8a\L	-bis	.	.	.	8f#/	.	8a/	.	.	.	.	.
.	.	.	.	.	.	.	8g\J	.	.	.	.	8e/J	.	8g/J	.	.	.	.	.
=7	=7	=7	=7	=7	=7	=7	=7	=7	=7	=7	=7	=7	=7	=7	=7	=7	=7	=7	=7
4D\	4	.	.	.	2r	.	8g\L	pa-	2r	.	.	8e/L	.	8g/L	.	2r	.	2r	.
.	3	.	.	.	.	.	8f#\	.	.	.	.	8d/	.	8f#/	.	.	.	.	.
4DD/	.	.	.	.	.	.	8e\	.	.	.	.	8c#/	.	8e/	.	.	.	.	.
.	.	.	.	.	.	.	8d\J	.	.	.	.	8d/J	.	8d/J	.	.	.	.	.
=8	=8	=8	=8	=8	=8	=8	=8	=8	=8	=8	=8	=8	=8	=8	=8	=8	=8	=8	=8
!	!	!	!	!	!	!	!LO:TX:a:t=SIC:s=4c	!	!	!	!	!	!	!	!	!	!	!	!
.	.	.	.	.	.	.	8qqd/	.	.	.	.	.	.	8qqc#/	.	.	.	.	.
8r	.	.	.	.	2r	.	4d\	-cem	2r	.	.	4d/	.	4d/	.	2r	.	2r	.
8G\L	.	.	.	.	.	.	.	.	.	.	.	.	.	.	.	.	.	.	.
8F#\	.	.	.	.	.	.	4r	.	.	.	.	4r	.	4r	.	.	.	.	.
8E\J	.	.	.	.	.	.	.	.	.	.	.	.	.	.	.	.	.	.	.
=9	=9	=9	=9	=9	=9	=9	=9	=9	=9	=9	=9	=9	=9	=9	=9	=9	=9	=9	=9
*2\right	*	*	*	*	*	*	*	*	*	*	*	*	*	*	*	*	*	*	*
*tremolo	*	*	*	*	*	*	*	*	*	*	*	*tremolo	*	*	*	*	*	*	*
!	!	!	!LO:N:vis=00	!	!	!	!	!	!	!	!	!	!	!	!	!	!	!	!
8F#\L	6	.	0r	.	2r	.	4.d\	Do-	2r	.	.	8A/L	.	4.d/	.	2r	.	2r	.
8F#\	.	.	.	.	.	.	.	.	.	.	.	8A/	.	.	.	.	.	.	.
8F#\	.	.	.	.	.	.	.	.	.	.	.	8A/	.	.	.	.	.	.	.
8F#\J	.	.	.	.	.	.	8f#\	-na	.	.	.	8A/J	.	16e/LL	.	.	.	.	.
.	.	.	.	.	.	.	.	.	.	.	.	.	.	16f#/JJ	.	.	.	.	.
=10	=10	=10	=10	=10	=10	=10	=10	=10	=10	=10	=10	=10	=10	=10	=10	=10	=10	=10	=10
8G\L	6	.	.	.	2r	.	8f#\L	no-	2r	.	.	8B/L	.	8f#/L	.	2r	.	2r	.
8G\	.	.	.	.	.	.	8e\J	.	.	.	.	8B/	.	8e/J	.	.	.	.	.
8G\	.	.	.	.	.	.	4e\	-bis	.	.	.	8B/	.	4e/	.	.	.	.	.
8G\J	.	.	.	.	.	.	.	.	.	.	.	8B/J	.	.	.	.	.	.	.
=11	=11	=11	=11	=11	=11	=11	=11	=11	=11	=11	=11	=11	=11	=11	=11	=11	=11	=11	=11
8A\L	7	.	.	.	2r	.	4.e\	do-	2r	.	.	8c#/L	.	4.e/	.	2r	.	2r	.
8A\	.	.	.	.	.	.	.	.	.	.	.	8c#/	.	.	.	.	.	.	.
8A\	.	.	.	.	.	.	.	.	.	.	.	8c#/	.	.	.	.	.	.	.
8A\J	.	.	.	.	.	.	8a\	-na	.	.	.	8c#/J	.	8a/	.	.	.	.	.
=12	=12	=12	=12	=12	=12	=12	=12	=12	=12	=12	=12	=12	=12	=12	=12	=12	=12	=12	=12
8B\L	5	.	.	.	2r	.	8g\L	no-	2r	.	.	8d/L	.	(8g/L	.	2r	.	2r	.
8B\	.	.	.	.	.	.	8f#\J	.	.	.	.	8d/	.	8f#/J)	.	.	.	.	.
8B\	.	.	.	.	.	.	4f#\	-bis	.	.	.	8d/	.	4f#/	.	.	.	.	.
8B\J	.	.	.	.	.	.	.	.	.	.	.	8d/J	.	.	.	.	.	.	.
=13	=13	=13	=13	=13	=13	=13	=13	=13	=13	=13	=13	=13	=13	=13	=13	=13	=13	=13	=13
!	!	!	!LO:N:vis=00	!	!	!	!	!	!	!	!	!	!	!LO:LB:g=original	!	!	!	!	!
8F#\L	6	.	0r	.	2r	.	4.a\	do-	2r	.	.	8d/L	.	4.a/	.	2r	.	2r	.
8F#\	.	.	.	.	.	.	.	.	.	.	.	8d/	.	.	.	.	.	.	.
8F#\	.	.	.	.	.	.	.	.	.	.	.	8d/	.	.	.	.	.	.	.
8F#\J	.	.	.	.	.	.	8dd\	-na	.	.	.	8d/J	.	8dd\	.	.	.	.	.
=14	=14	=14	=14	=14	=14	=14	=14	=14	=14	=14	=14	=14	=14	=14	=14	=14	=14	=14	=14
!LO:LB:g=original	!	!	!	!	!	!	!LO:LB:g=original	!	!	!	!	!	!	!	!	!	!	!	!
8G\L	.	.	.	.	2r	.	8cc#\L	no-	2r	.	.	8d/L	.	8cc#\L	.	2r	.	2r	.
8G\	.	.	.	.	.	.	8b\J	.	.	.	.	8d/	.	8b\	.	.	.	.	.
8G\	.	.	.	.	.	.	8a\L	-bis	.	.	.	8d/	.	8a\	.	.	.	.	.
8G\J	.	.	.	.	.	.	8g\J	.	.	.	.	8d/J	.	8g\J	.	.	.	.	.
*Xtremolo	*	*	*	*	*	*	*	*	*	*	*	*Xtremolo	*	*	*	*	*	*	*
=15	=15	=15	=15	=15	=15	=15	=15	=15	=15	=15	=15	=15	=15	=15	=15	=15	=15	=15	=15
!LO:TX:a:t=problem: mixed beam	!	!	!	!	!	!	!	!	!	!	!	!LO:LB:g=original	!	!	!	!	!	!	!
8A\L	4	.	.	.	2r	.	8f#\L	pa-	2r	.	.	8d/L	.	8f#/L	.	2r	.	2r	.
8A\	3	.	.	.	.	.	8d\	.	.	.	.	8d/	.	8d/	.	.	.	.	.
8AA/	.	.	.	.	.	.	8e\	.	.	.	.	8c#/	.	8e/	.	.	.	.	.
8AA/J	.	.	.	.	.	.	8c#\J	.	.	.	.	8c#/J	.	8c#/J	.	.	.	.	.
=16	=16	=16	=16	=16	=16	=16	=16	=16	=16	=16	=16	=16	=16	=16	=16	=16	=16	=16	=16
!	!	!	!	!	!	!	!	!	!	!	!	!	!	!LO:TX:a:t=problem: mixed beam	!	!	!	!	!
.	.	.	.	.	.	.	8qqc#/	.	.	.	.	.	.	.	.	.	.	.	.
4D\	.	.	.	.	2r	.	4d\	-cem	2r	.	.	8d/L	.	8d/L	.	2r	.	2r	.
.	.	.	.	.	.	.	.	.	.	.	.	16d/L	.	16dd\L	.	.	.	.	.
!	!	!	!	!	!	!	!	!	!	!	!	!	!	!	!LO:DY:t=for	!	!	!	!
!	!	!	!	!	!	!	!	!	!	!	!	!	!	!	!LO:DY:b	!	!	!	!
.	.	.	.	.	.	.	.	.	.	.	.	16c#/JJ	.	16cc#\JJ	f	.	.	.	.
!	!	!	!	!	!	!	!	!	!	!	!	!	!LO:DY:t=for	!	!	!	!	!	!
!	!	!	!	!	!	!	!	!	!	!	!	!	!LO:DY:b	!	!	!	!	!	!
4r	.	.	.	.	.	.	4r	.	.	.	.	16d/LL	f	16dd\LL	.	.	.	.	.
.	.	.	.	.	.	.	.	.	.	.	.	16e/	.	16ee\	.	.	.	.	.
.	.	.	.	.	.	.	.	.	.	.	.	16f#/	.	16ff#\	.	.	.	.	.
.	.	.	.	.	.	.	.	.	.	.	.	16g/JJ	.	16gg\JJ	.	.	.	.	.
=17	=17	=17	=17	=17	=17	=17	=17	=17	=17	=17	=17	=17	=17	=17	=17	=17	=17	=17	=17
*	*	*	*	*	*	*	*	*	*	*	*	*	*	*	*	*2\right	*	*2\right	*
!	!	!LO:DY:t=for	!	!	!	!	!LO:TX:a:t=Tutti	!	!	!	!LO:TX:aLt=problem: caudy po lewej stronie	!	!	!	!	!	!LO:TX:a:t=problrm:caudy po lewej stronie	!	!
4D\	.	f	4D\	Do-	4d\	Do-	4.a\	do-	4.ff#\	Do-	.	4.a/	.	4.aa\	.	[2f#\	.	2f#\ [2a	.
4DD/	.	.	4D\	-na	4d\	-na	.	.	.	.	.	.	.	.	.	.	.	.	.
.	.	.	.	.	.	.	16f#\LL	-na	16dd\LL	-na	.	16f#/LL	.	16ff#\LL	.	.	.	.	.
.	.	.	.	.	.	.	16g\JJ	.	16ee\JJ	.	.	16g/JJ	.	16gg\JJ	.	.	.	.	.
=18	=18	=18	=18	=18	=18	=18	=18	=18	=18	=18	=18	=18	=18	=18	=18	=18	=18	=18	=18
4r	.	.	4D\	no-	4d\	no-	8a\L	no-	8ff#\L	no-	.	8a/L	.	8aa\L	.	4f#\]	.	4f#\ 4a]	.
.	.	.	.	.	.	.	8f#\J	.	8dd\J	.	.	8f#/	.	8ff#\	.	.	.	.	.
4BB/	.	.	4BB/	-bis	4d\	-bis	8b\L	-bis	8gg\L	-bis	.	8b/	.	8bb\	.	4r	.	4r	.
.	.	.	.	.	.	.	8a\J	.	8ff#\J	.	.	8a/J	.	8aa\J	.	.	.	.	.
=19	=19	=19	=19	=19	=19	=19	=19	=19	=19	=19	=19	=19	=19	=19	=19	=19	=19	=19	=19
*	*	*	*2\right	*	*2\right	*	*	*	*	*	*	*	*	*	*	*	*	*	*
!	!	!	!	!	!	!	!	!	!	!	!	!	!	!	!	!LO:TX:a:t=2	!	!LO:TX:a:t=2	!
!	!	!	!	!	!	!	!	!	!	!	!	!	!	!	!	!LO:N:vis=0	!	!LO:N:vis=0	!
4E\	4	.	2E\	pa-	2B\	pa-	8a\L	pa-	(8ff#\L	pa-	.	8a/L	.	8aa\L	.	1r	.	1r	.
.	3	.	.	.	.	.	8g\	.	8ee\)	.	.	8g/	.	8gg\	.	.	.	.	.
4EE/	.	.	.	.	.	.	8f#\	.	(8dd#X\	.	.	8f#/	.	8ff#\	.	.	.	.	.
.	.	.	.	.	.	.	8e\J	.	8ee\J)	.	.	8e/J	.	8ee\J	.	.	.	.	.
=20	=20	=20	=20	=20	=20	=20	=20	=20	=20	=20	=20	=20	=20	=20	=20	=20	=20	=20	=20
.	.	.	.	.	.	.	8qqd#X/	.	.	.	.	4qqd#X/	.	8qqdd#X/	.	.	.	.	.
8E\L	.	.	4D\	-cem	4B\	-cem	4e\	-cem	4ee\	-cem	.	4e/	.	4ee\	.	.	.	.	.
8D\	.	.	.	.	.	.	.	.	.	.	.	.	.	.	.	.	.	.	.
8C#\	.	.	4r	.	4r	.	4r	.	4r	.	.	4r	.	4r	.	.	.	.	.
8BB\J	.	.	.	.	.	.	.	.	.	.	.	.	.	.	.	.	.	.	.
=21	=21	=21	=21	=21	=21	=21	=21	=21	=21	=21	=21	=21	=21	=21	=21	=21	=21	=21	=21
4AA/	7	.	4A\	{Do-	4c#\	do-	4.g\	do-	4.ee\	do-	.	4.g/	.	4.gg\	.	[2e\	.	2e\ [2g	.
4A\	.	.	4A\	-na	4c#\	-na	.	.	.	.	.	.	.	.	.	.	.	.	.
.	.	.	.	.	.	.	16e\LL	-na	16cc#\LL	-na	.	16e/LL	.	16ee\LL	.	.	.	.	.
.	.	.	.	.	.	.	16f#\JJ	.	16dd\JJ	.	.	16f#/JJ	.	16ff#\JJ	.	.	.	.	.
=22	=22	=22	=22	=22	=22	=22	=22	=22	=22	=22	=22	=22	=22	=22	=22	=22	=22	=22	=22
4r	.	.	4A\	no-	4c#\	no-	8g\L	no-	8ee\L	no-	.	8g/L	.	8gg\L	.	4e\]	.	4e\ 4g]	.
.	.	.	.	.	.	.	8e\J	.	8cc#\J	.	.	8e/	.	8ee\	.	.	.	.	.
4AA/	.	.	4AA/	-bis	4c#\	-bis	8a\L	-bis	8ff#\L	-bis	.	8a/	.	8aa\	.	4r	.	4r	.
.	.	.	.	.	.	.	8g\J	.	8ee\J	.	.	8g/J	.	8gg\J	.	.	.	.	.
=23	=23	=23	=23	=23	=23	=23	=23	=23	=23	=23	=23	=23	=23	=23	=23	=23	=23	=23	=23
!	!	!	!	!	!	!	!	!	!	!	!	!	!	!	!	!LO:TX:a:t=6	!	!LO:TX:a:t=6	!
!	!	!	!	!	!	!	!	!	!	!	!	!	!	!	!	!LO:N:vis=00	!	!LO:N:vis=00	!
4D\	4	.	2D\	pa-	2A\	pa-	8g\L	pa-	(8ee\L	pa-	.	8g/L	.	8gg\L	.	0r	.	0r	.
.	3	.	.	.	.	.	8f#\	.	8dd\)	.	.	8f#/	.	8ff#\	.	.	.	.	.
4DD/	.	.	.	.	.	.	8e\	.	(8cc#\	.	.	8e/	.	8ee\	.	.	.	.	.
.	.	.	.	.	.	.	8d\J	.	8dd\J)	.	.	8d/J	.	8dd\J	.	.	.	.	.
=24	=24	=24	=24	=24	=24	=24	=24	=24	=24	=24	=24	=24	=24	=24	=24	=24	=24	=24	=24
.	.	.	.	.	.	.	8qqc#/	.	.	.	.	8qqc#/	.	8qqcc#/	.	.	.	.	.
8r	.	.	4D\	-cem}	4A\	-cem	4d\	-cem	4dd\	-cem	.	4d/	.	4dd\	.	.	.	.	.
8G\L	.	.	.	.	.	.	.	.	.	.	.	.	.	.	.	.	.	.	.
8F#\	.	.	4r	.	4r	.	4r	.	4r	.	.	4r	.	4r	.	.	.	.	.
8E\J	.	.	.	.	.	.	.	.	.	.	.	.	.	.	.	.	.	.	.
=25	=25	=25	=25	=25	=25	=25	=25	=25	=25	=25	=25	=25	=25	=25	=25	=25	=25	=25	=25
*	*	*	*	*	*	*	*	*	*	*	*	*2\right	*	*	*	*	*	*	*
*tremolo	*	*	*	*	*	*	*	*	*	*	*	*tremolo	*	*	*	*	*	*	*
8F#\L	6	.	4.F#\	Do-	4.d\	Do-	4.d\	do-	4.a\	do-	.	8a\L	.	4.dd\	.	.	.	.	.
8F#\	.	.	.	.	.	.	.	.	.	.	.	8a\	.	.	.	.	.	.	.
8F#\	.	.	.	.	.	.	.	.	.	.	.	8a\	.	.	.	.	.	.	.
8F#\J	.	.	8F#\	-na	8d\	-na	16e\LL	-na	8a\	-na	.	8a\J	.	16ee\LL	.	.	.	.	.
.	.	.	.	.	.	.	16f#\JJ	.	.	.	.	.	.	16ff#\JJ	.	.	.	.	.
=26	=26	=26	=26	=26	=26	=26	=26	=26	=26	=26	=26	=26	=26	=26	=26	=26	=26	=26	=26
!	!	!	!	!	!	!	!	!	!	!	!	!	!	!LO:LB:g=original	!	!	!	!	!
8G\L	6|	.	4G\	no-	4B\	no-	8f#\L	no-	4b\	no-	.	8b\L	.	(8ff#\L	.	.	.	.	.
8G\	.	.	.	.	.	.	8e\J	.	.	.	.	8b\	.	8ee\J)	.	.	.	.	.
8G\	.	.	4G\	-bis	4B\	-bis	4e\	-bis	4b\	-bis	.	8b\	.	4ee\	.	.	.	.	.
8G\J	.	.	.	.	.	.	.	.	.	.	.	8b\J	.	.	.	.	.	.	.
=27	=27	=27	=27	=27	=27	=27	=27	=27	=27	=27	=27	=27	=27	=27	=27	=27	=27	=27	=27
!	!	!	!	!	!LO:LB:g=original	!	!	!	!	!	!	!	!	!	!	!	!	!	!
!	!	!	!	!	!	!	!	!	!	!	!	!	!	!	!	!LO:N:vis=0	!	!LO:N:vis=0	!
8A\L	5	.	4.A\	pa-	4.e\	{do-	4.e\	do-	4.cc#\	pa-	.	8cc#\L	.	4.ee\	.	1r	.	1r	.
8A\	7	.	.	.	.	.	.	.	.	.	.	8cc#\	.	.	.	.	.	.	.
8A\	.	.	.	.	.	.	.	.	.	.	.	8cc#\	.	.	.	.	.	.	.
8A\J	.	.	8A\	-cem	8e\	-na	8a\	-na	8cc#\	-cem	.	8cc#\J	.	8aa\	.	.	.	.	.
=28	=28	=28	=28	=28	=28	=28	=28	=28	=28	=28	=28	=28	=28	=28	=28	=28	=28	=28	=28
!	!	!	!LO:LB:g=original	!	!	!	!	!	!LO:LB:g=original	!	!	!	!	!	!	!	!	!	!
8B\L	5	.	4B\	{pa-	4d\	no-	8g\L	no-	4dd\	pa-	.	8dd\L	.	8gg\L	.	.	.	.	.
8B\	.	.	.	.	.	.	8f#\J	.	.	.	.	8dd\	.	8ff#\J	.	.	.	.	.
8B\	.	.	4B\	-cem}	4d\	-bis}	4f#\	-bis	4dd\	-cem	.	8dd\	.	4ff#\	.	.	.	.	.
8B\J	.	.	.	.	.	.	.	.	.	.	.	8dd\J	.	.	.	.	.	.	.
=29	=29	=29	=29	=29	=29	=29	=29	=29	=29	=29	=29	=29	=29	=29	=29	=29	=29	=29	=29
!	!	!	!	!	!	!	!LO:LB:g=original	!	!	!	!	!	!	!	!	!	!	!LO:LB:g=original	!
8F#\L	6	.	4.F#\	Do-	4.d\	Do-	4.a\	do-	4.dd\	do-	.	8dd\L	.	4.aa\	.	(2d\	.	(2d\	.
8F#\	.	.	.	.	.	.	.	.	.	.	.	8dd\	.	.	.	.	.	.	.
8F#\	.	.	.	.	.	.	.	.	.	.	.	8dd\	.	.	.	.	.	.	.
8F#\J	.	.	8F#\	-na	8B\	-na	8dd\	-na	8dd\	-na	.	8dd\J	.	8ddd\	.	.	.	.	.
=30	=30	=30	=30	=30	=30	=30	=30	=30	=30	=30	=30	=30	=30	=30	=30	=30	=30	=30	=30
!	!	!	!	!	!	!	!	!	!	!	!	!LO:LB:g=original	!	!	!	!	!	!	!
8G\L	.	.	4G\	no-	4B\	no-	8cc#\L	no-	4dd\	no-	.	8dd\L	.	8ccc#\L	.	4e\)	.	4e\)	.
8G\	.	.	.	.	.	.	8b\J	.	.	.	.	8dd\	.	8bb\	.	.	.	.	.
8G\	.	.	4G\	-bis	4B\	-bis	8a\L	-bis	4dd\	-bis	.	8dd\	.	8aa\	.	4r	.	4r	.
8G\J	.	.	.	.	.	.	8g\J	.	.	.	.	8dd\J	.	8gg\J	.	.	.	.	.
*Xtremolo	*	*	*	*	*	*	*	*	*	*	*	*Xtremolo	*	*	*	*	*	*	*
=31	=31	=31	=31	=31	=31	=31	=31	=31	=31	=31	=31	=31	=31	=31	=31	=31	=31	=31	=31
!LO:LB:g=original	!	!	!	!	!	!	!	!	!	!	!	!	!	!	!	!	!	!	!
!LO:TX:a:t=problem: mixed beam	!	!	!	!	!	!	!	!	!	!	!	!LO:TX:a:t=problem: caudy po lewej stronie	!	!	!	!	!	!	!
8A\L	.	.	4A\	pa-	2A\	pa-	(4f#\	pa-	4dd\	pa-	.	4dd\	.	8ff#\L	.	4d\	.	4d\ 4f#	.
8A\	.	.	.	.	.	.	.	.	.	.	.	.	.	8dd\	.	.	.	.	.
8AA/	.	.	4AA/	.	.	.	4e\)	.	(4cc#\	.	.	4cc#\	.	8ee\	.	4A/	.	4A/ 4e	.
8AA/J	.	.	.	.	.	.	.	.	.	.	.	.	.	8cc#\J	.	.	.	.	.
=32	=32	=32	=32	=32	=32	=32	=32	=32	=32	=32	=32	=32	=32	=32	=32	=32	=32	=32	=32
4D\	.	.	4D\	-cem	4A\	-cem	4d\	-cem	4dd\)	-cem	.	4dd\	.	4dd\	.	4F#/	.	4F#/ 4d	.
4r	.	.	4r	.	4r	.	4r	.	4r	.	.	4r	.	4r	.	4r	.	4r	.
=33	=33	=33	=33	=33	=33	=33	=33	=33	=33	=33	=33	=33	=33	=33	=33	=33	=33	=33	=33
!	!	!	!LO:TX:a:t=17	!	!LO:TX:a:t=17.	!	!LO:TX:a:t=17.	!	!LO:TX:a:t=Dolce	!	!LO:DY:t=mf.	!	!LO:DY:t=p.	!LO:TX:b:t=Dol.	!LO:DY:t=p:	!LO:TX:a:t=17.	!	!LO:TX:a:t=17	!
!	!	!LO:DY:t=piano	!	!	!	!	!	!	!	!	!LO:DY:b	!	!LO:DY:b	!	!LO:DY:b	!	!	!	!
*tremolo	*	*	*	*	*	*	*	*	*	*	*	*tremolo	*	*	*	*	*	*	*
8d\L	.	p	2r	.	2r	.	2r	.	4.ff#\	do-	mf	8a/L	p	4.ff#\	p	2r	.	2r	.
8d\	.	.	.	.	.	.	.	.	.	.	.	8a/	.	.	.	.	.	.	.
8d\	.	.	.	.	.	.	.	.	.	.	.	8a/	.	.	.	.	.	.	.
8d\J	.	.	.	.	.	.	.	.	8ff#\	-na	.	8a/J	.	8ff#\	.	.	.	.	.
=34	=34	=34	=34	=34	=34	=34	=34	=34	=34	=34	=34	=34	=34	=34	=34	=34	=34	=34	=34
.	.	.	.	.	.	.	.	.	8qqff#/	.	.	.	.	8qqff#/	.	.	.	.	.
8c#\L	6	.	2r	.	2r	.	2r	.	4ee\	no-	.	8a/L	.	4ee\	.	2r	.	2r	.
8c#\	.	.	.	.	.	.	.	.	.	.	.	8a/	.	.	.	.	.	.	.
8c#\	.	.	.	.	.	.	.	.	8cc#\L	-bis	.	8a/	.	8cc#\L	.	.	.	.	.
8c#\J	.	.	.	.	.	.	.	.	8a\J	.	.	8a/J	.	8a\J	.	.	.	.	.
=35	=35	=35	=35	=35	=35	=35	=35	=35	=35	=35	=35	=35	=35	=35	=35	=35	=35	=35	=35
.	.	.	.	.	.	.	.	.	8qqa/	.	.	.	.	8qqa/	.	.	.	.	.
8B\L	6|	.	2r	.	2r	.	2r	.	4.g#X\	pa	.	8g#X/L	.	4.g#X/	.	2r	.	2r	.
8B\	.	.	.	.	.	.	.	.	.	.	.	8g#/	.	.	.	.	.	.	.
8B\	.	.	.	.	.	.	.	.	.	.	.	8g#/	.	.	.	.	.	.	.
8B\J	.	.	.	.	.	.	.	.	8dd\	-cem	.	8g#/J	.	8dd\	.	.	.	.	.
=36	=36	=36	=36	=36	=36	=36	=36	=36	=36	=36	=36	=36	=36	=36	=36	=36	=36	=36	=36
.	.	.	.	.	.	.	.	.	8qqee/	.	.	.	.	.	.	.	.	.	.
8A\L	4	.	2r	.	2r	.	2r	.	4dd\	{pa-	.	8e/L	.	4dd\	.	2r	.	2r	.
8A\	3	.	.	.	.	.	.	.	.	.	.	8e/	.	.	.	.	.	.	.
8A\	.	.	.	.	.	.	.	.	4cc#\	-cem}	.	8e/	.	4cc#\	.	.	.	.	.
8A\J	.	.	.	.	.	.	.	.	.	.	.	8e/J	.	.	.	.	.	.	.
*Xtremolo	*	*	*	*	*	*	*	*	*	*	*	*Xtremolo	*	*	*	*	*	*	*
=37	=37	=37	=37	=37	=37	=37	=37	=37	=37	=37	=37	=37	=37	=37	=37	=37	=37	=37	=37
!	!	!	!	!	!	!	!	!	!	!	!	!LO:TX:t=problem:repetycja taktów 3740	!	!	!	!	!	!	!
!	!	!	!	!	!	!	!	!	!	!	!	!LO:TX:a:t=problem:niejasne oznaczenie nad taktem	!	!	!	!	!	!	!
4G#X\	6	.	2r	.	2r	.	2r	.	4.b\	do-	.	8e/	.	4.b\	.	2r	.	2r	.
.	.	.	.	.	.	.	.	.	.	.	.	4e/	.	.	.	.	.	.	.
4E\	.	.	.	.	.	.	.	.	.	.	.	.	.	.	.	.	.	.	.
.	.	.	.	.	.	.	.	.	8dd\	-na	.	8e/	.	8dd\	.	.	.	.	.
=38	=38	=38	=38	=38	=38	=38	=38	=38	=38	=38	=38	=38	=38	=38	=38	=38	=38	=38	=38
4A\	.	.	2r	.	2r	.	2r	.	8dd\L	no-	.	8e/	.	8dd\L	.	2r	.	2r	.
.	.	.	.	.	.	.	.	.	8cc#\J	.	.	4e/	.	8cc#\	.	.	.	.	.
4E\	.	.	.	.	.	.	.	.	8ff#\L	-bis	.	.	.	8ff#\	.	.	.	.	.
.	.	.	.	.	.	.	.	.	8ee\J	.	.	8e/	.	8ee\J	.	.	.	.	.
=39	=39	=39	=39	=39	=39	=39	=39	=39	=39	=39	=39	=39	=39	=39	=39	=39	=39	=39	=39
!	!	!	!	!	!	!	!	!	!	!	!	!	!	!LO:LB:g=original	!	!	!	!	!
4B\	.	.	2r	.	2r	.	2r	.	(8ee\L	pa-	.	8e/	.	(8ee\L	.	2r	.	2r	.
.	.	.	.	.	.	.	.	.	8dd\)	.	.	4e/	.	8dd\)	.	.	.	.	.
4E\	6|	.	.	.	.	.	.	.	(8b\	.	.	.	.	(8b\	.	.	.	.	.
.	.	.	.	.	.	.	.	.	8dd\J)	.	.	8e/	.	8dd\J)	.	.	.	.	.
=40	=40	=40	=40	=40	=40	=40	=40	=40	=40	=40	=40	=40	=40	=40	=40	=40	=40	=40	=40
*	*	*	*	*	*	*	*	*	*2\right	*	*	*	*	*	*	*	*	*	*
.	.	.	.	.	.	.	.	.	8qqdd/	.	.	.	.	8qqdd/	.	.	.	.	.
4A\	.	.	2r	.	2r	.	2r	.	2cc#\	-cem	.	8e/	.	2cc#\	.	2r	.	2r	.
.	.	.	.	.	.	.	.	.	.	.	.	4e/	.	.	.	.	.	.	.
4E\	.	.	.	.	.	.	.	.	.	.	.	.	.	.	.	.	.	.	.
.	.	.	.	.	.	.	.	.	.	.	.	8e/	.	.	.	.	.	.	.
=41	=41	=41	=41	=41	=41	=41	=41	=41	=41	=41	=41	=41	=41	=41	=41	=41	=41	=41	=41
!	!	!	!	!	!	!	!	!	!LO:LB:g=original	!	!	!	!	!	!	!	!	!	!
4G#X\	6|	.	2r	.	2r	.	2r	.	4.b\	do-	.	8e/	.	4.b\	.	2r	.	2r	.
.	.	.	.	.	.	.	.	.	.	.	.	4e/	.	.	.	.	.	.	.
4E\	.	.	.	.	.	.	.	.	.	.	.	.	.	.	.	.	.	.	.
.	.	.	.	.	.	.	.	.	8cc#\	-na	.	8e/	.	8dd\	.	.	.	.	.
=42	=42	=42	=42	=42	=42	=42	=42	=42	=42	=42	=42	=42	=42	=42	=42	=42	=42	=42	=42
4A\	.	.	2r	.	2r	.	2r	.	8dd\L	no-	.	8e/	.	(8dd\L	.	2r	.	2r	.
.	.	.	.	.	.	.	.	.	8cc#\J	.	.	4e/	.	8cc#\)	.	.	.	.	.
4E\	.	.	.	.	.	.	.	.	8ff#\L	-bis	.	.	.	(8ff#\	.	.	.	.	.
.	.	.	.	.	.	.	.	.	8ee\J	.	.	8e/	.	8ee\J)	.	.	.	.	.
=43	=43	=43	=43	=43	=43	=43	=43	=43	=43	=43	=43	=43	=43	=43	=43	=43	=43	=43	=43
4B\	6|	.	2r	.	2r	.	2r	.	8ff#\L	pa-	.	8e/	.	(8ee\L	.	2r	.	2r	.
.	.	.	.	.	.	.	.	.	8dd\	.	.	4e/	.	8dd\)	.	.	.	.	.
4E\	.	.	.	.	.	.	.	.	8b\	.	.	.	.	8b\	.	.	.	.	.
.	.	.	.	.	.	.	.	.	8dd\J	.	.	8e/	.	8dd\J	.	.	.	.	.
=44	=44	=44	=44	=44	=44	=44	=44	=44	=44	=44	=44	=44	=44	=44	=44	=44	=44	=44	=44
.	.	.	.	.	.	.	.	.	8qqdd/	.	.	.	.	8qqdd/	.	.	.	.	.
4A\	.	.	2r	.	2r	.	2r	.	2cc#\	-cem	.	8e/	.	2cc#\	.	2r	.	2r	.
.	.	.	.	.	.	.	.	.	.	.	.	4e/	.	.	.	.	.	.	.
4C#/	.	.	.	.	.	.	.	.	.	.	.	.	.	.	.	.	.	.	.
.	.	.	.	.	.	.	.	.	.	.	.	8e/	.	.	.	.	.	.	.
=45	=45	=45	=45	=45	=45	=45	=45	=45	=45	=45	=45	=45	=45	=45	=45	=45	=45	=45	=45
*tremolo	*	*	*	*	*	*	*	*	*	*	*	*tremolo	*	*	*	*	*	*	*
.	.	.	.	.	.	.	.	.	8qqcc#/	.	.	.	.	8qqcc#/	.	.	.	.	.
8D\L	6 5	.	2r	.	2r	.	2r	.	4.b\	do-	.	8a/L	.	4.b\	.	2r	.	2r	.
8D\	.	.	.	.	.	.	.	.	.	.	.	8a/	.	.	.	.	.	.	.
8D\	.	.	.	.	.	.	.	.	.	.	.	8a/	.	.	.	.	.	.	.
8D\J	.	.	.	.	.	.	.	.	8dd\	-na	.	8a/J	.	8dd\	.	.	.	.	.
=46	=46	=46	=46	=46	=46	=46	=46	=46	=46	=46	=46	=46	=46	=46	=46	=46	=46	=46	=46
.	.	.	.	.	.	.	.	.	8qqdd/	.	.	.	.	8qqdd/	.	.	.	.	.
8E\L	6 4	.	2r	.	2r	.	2r	.	4.cc#\	no-	.	8a/L	.	4.cc#\	.	2r	.	2r	.
8E\	.	.	.	.	.	.	.	.	.	.	.	8a/	.	.	.	.	.	.	.
8E\	.	.	.	.	.	.	.	.	.	.	.	8a/	.	.	.	.	.	.	.
8E\J	.	.	.	.	.	.	.	.	8ee\	-bis	.	8a/J	.	8ee\	.	.	.	.	.
*Xtremolo	*	*	*	*	*	*	*	*	*	*	*	*Xtremolo	*	*	*	*	*	*	*
=47	=47	=47	=47	=47	=47	=47	=47	=47	=47	=47	=47	=47	=47	=47	=47	=47	=47	=47	=47
.	.	.	.	.	.	.	.	.	8qqee/	.	.	.	.	8qqee/	.	.	.	.	.
4F#\	6	.	2r	.	2r	.	2r	.	4dd\	pa-	.	4a/	.	4dd\	.	2r	.	2r	.
4D\	6	.	.	.	.	.	.	.	8cc#\L	.	.	4f#/	.	8cc#\L	.	.	.	.	.
.	.	.	.	.	.	.	.	.	8b\J	.	.	.	.	8b\J	.	.	.	.	.
=48	=48	=48	=48	=48	=48	=48	=48	=48	=48	=48	=48	=48	=48	=48	=48	=48	=48	=48	=48
4E\	4	.	2r	.	2r	.	2r	.	8b\L	.	.	8d/L	.	8b/L	.	2r	.	2r	.
.	.	.	.	.	.	.	.	.	8a\	.	.	8c#/	.	8a/	.	.	.	.	.
4EE/	#	.	.	.	.	.	.	.	8a\	.	.	8c#/	.	8a/	.	.	.	.	.
.	.	.	.	.	.	.	.	.	8g#X\J	.	.	8B/J	.	8g#X/J	.	.	.	.	.
=49	=49	=49	=49	=49	=49	=49	=49	=49	=49	=49	=49	=49	=49	=49	=49	=49	=49	=49	=49
!LO:LB:g=original	!	!	!	!	!	!	!	!	!	!	!	!	!	!LO:TX:a:t=SIC:s=8g#	!	!	!	!	!
.	.	.	.	.	.	.	.	.	.	.	.	.	.	8qqg/	.	.	.	.	.
4AA/	.	.	2r	.	2r	.	2r	.	4a\	-cem	.	4c#/	.	4a/	.	2r	.	2r	.
4r	.	.	.	.	.	.	.	.	4r	.	.	4r	.	4r	.	.	.	.	.
=50	=50	=50	=50	=50	=50	=50	=50	=50	=50	=50	=50	=50	=50	=50	=50	=50	=50	=50	=50
!	!	!	!	!	!	!	!	!	!	!	!LO:DY:t=f:	!	!LO:DY:t=for	!	!LO:DY:t=for	!	!	!	!
!	!	!LO:DY:t=for	!	!	!	!	!	!	!	!	!LO:DY:a	!	!LO:DY:b	!	!LO:DY:b	!	!	!	!
*	*	*	*	*	*	*	*	*	*	*	*	*tremolo	*	*	*	*	*	*	*
4c#\	6	f	4c#\	Do-	4.e\	Do-	4.a\	Do-	4.ee\	do-	f	16e/LL	f	4.ee\	f	2e\	.	2e\	.
.	.	.	.	.	.	.	.	.	.	.	.	16e/	.	.	.	.	.	.	.
.	.	.	.	.	.	.	.	.	.	.	.	16e/	.	.	.	.	.	.	.
.	.	.	.	.	.	.	.	.	.	.	.	16e/	.	.	.	.	.	.	.
4A\	.	.	4A\	-na	.	.	.	.	.	.	.	16e/	.	.	.	.	.	.	.
.	.	.	.	.	.	.	.	.	.	.	.	16e/	.	.	.	.	.	.	.
.	.	.	.	.	8e\	-na	8a\	-na	8ff#\	-na	.	16e/	.	8ff#\	.	.	.	.	.
.	.	.	.	.	.	.	.	.	.	.	.	16e/JJ	.	.	.	.	.	.	.
=51	=51	=51	=51	=51	=51	=51	=51	=51	=51	=51	=51	=51	=51	=51	=51	=51	=51	=51	=51
!	!	!	!	!	!	!	!	!	!	!	!	!	!	!	!	!LO:TX:a:t=1	!	!	!
2B\	4	.	4B\	no-	4e\	no-	4g#X\	no-	8ee\L	no-	.	16e/LL	.	8ee\L	.	2r	.	2r	.
.	3	.	.	.	.	.	.	.	.	.	.	16e/	.	.	.	.	.	.	.
.	.	.	.	.	.	.	.	.	8dd\J	.	.	16e/	.	8dd\J	.	.	.	.	.
.	.	.	.	.	.	.	.	.	.	.	.	16e/	.	.	.	.	.	.	.
.	.	.	4B\	-bis	4e\	-bis	4g#\	-bis	4dd\	-bis	.	16e/	.	4dd\	.	.	.	.	.
.	.	.	.	.	.	.	.	.	.	.	.	16e/	.	.	.	.	.	.	.
.	.	.	.	.	.	.	.	.	.	.	.	16e/	.	.	.	.	.	.	.
.	.	.	.	.	.	.	.	.	.	.	.	16e/JJ	.	.	.	.	.	.	.
=52	=52	=52	=52	=52	=52	=52	=52	=52	=52	=52	=52	=52	=52	=52	=52	=52	=52	=52	=52
!	!	!	!	!	!	!	!	!	!	!	!	!LO:LB:g=original	!	!	!	!	!	!	!
4.G#X\	3	.	4.G#X\	pa-	4.e\	do-	4.e\	pa-	4.b\	pa-	.	16e/LL	.	4.b\	.	2e\	.	2e\	.
.	.	.	.	.	.	.	.	.	.	.	.	16e/	.	.	.	.	.	.	.
.	.	.	.	.	.	.	.	.	.	.	.	16e/	.	.	.	.	.	.	.
.	.	.	.	.	.	.	.	.	.	.	.	16e/	.	.	.	.	.	.	.
.	.	.	.	.	.	.	.	.	.	.	.	16e/	.	.	.	.	.	.	.
.	.	.	.	.	.	.	.	.	.	.	.	16e/	.	.	.	.	.	.	.
8A\	5	.	8A\	-cem	8e\	-na	8e\	-cem	8cc#\	-cem	.	16e/	.	8cc#\	.	.	.	.	.
.	.	.	.	.	.	.	.	.	.	.	.	16e/JJ	.	.	.	.	.	.	.
=53	=53	=53	=53	=53	=53	=53	=53	=53	=53	=53	=53	=53	=53	=53	=53	=53	=53	=53	=53
!	!	!	!	!	!	!	!	!	!LO:LB:g=original	!	!	!	!	!LO:LB:g=original	!	!	!	!	!
.	.	.	.	.	.	.	.	.	.	.	.	.	.	8qqee/	.	.	.	.	.
!	!	!	!	!	!	!	!	!	!	!	!	!	!	!	!	!LO:TX:a:t=1	!	!	!
4B\	3	.	4B\	{pa-	4e\	no-	4e\	{pa-	4dd\	{pa-	.	16e/LL	.	4dd\	.	2r	.	2r	.
.	.	.	.	.	.	.	.	.	.	.	.	16e/	.	.	.	.	.	.	.
.	.	.	.	.	.	.	.	.	.	.	.	16e/	.	.	.	.	.	.	.
.	.	.	.	.	.	.	.	.	.	.	.	16e/	.	.	.	.	.	.	.
4A\	3	.	4A\	-cem}	4e\	-bis	4e\	-cem}	4cc#\	-cem}	.	16e/	.	4cc#\	.	.	.	.	.
.	.	.	.	.	.	.	.	.	.	.	.	16e/	.	.	.	.	.	.	.
.	.	.	.	.	.	.	.	.	.	.	.	16e/	.	.	.	.	.	.	.
.	.	.	.	.	.	.	.	.	.	.	.	16e/JJ	.	.	.	.	.	.	.
=54	=54	=54	=54	=54	=54	=54	=54	=54	=54	=54	=54	=54	=54	=54	=54	=54	=54	=54	=54
4c#\	6	.	4c#\	Do-	4.e\	do-	4.a\	do-	4.ee\	do-	.	16e/LL	.	4.ee\	.	2e\	.	2e\	.
.	.	.	.	.	.	.	.	.	.	.	.	16e/	.	.	.	.	.	.	.
.	.	.	.	.	.	.	.	.	.	.	.	16e/	.	.	.	.	.	.	.
.	.	.	.	.	.	.	.	.	.	.	.	16e/	.	.	.	.	.	.	.
4A\	.	.	4A\	-na	.	.	.	.	.	.	.	16e/	.	.	.	.	.	.	.
.	.	.	.	.	.	.	.	.	.	.	.	16e/	.	.	.	.	.	.	.
.	.	.	.	.	8e\	-na	8a\	-na	8ff#\	-na	.	16e/	.	8ff#\	.	.	.	.	.
.	.	.	.	.	.	.	.	.	.	.	.	16e/JJ	.	.	.	.	.	.	.
=55	=55	=55	=55	=55	=55	=55	=55	=55	=55	=55	=55	=55	=55	=55	=55	=55	=55	=55	=55
2B\	4	.	4B\	no-	4e\	no-	4g#X\	no-	(8ee\L	no-	.	16e/LL	.	(8ee\L	.	2r	.	2r	.
.	3	.	.	.	.	.	.	.	.	.	.	16e/	.	.	.	.	.	.	.
.	.	.	.	.	.	.	.	.	8dd\J)	.	.	16e/	.	8dd\J)	.	.	.	.	.
.	.	.	.	.	.	.	.	.	.	.	.	16e/	.	.	.	.	.	.	.
.	.	.	4B\	-bis	4e\	-bis	4g#\	-bis	4dd\	-bis	.	16e/	.	4dd\	.	.	.	.	.
.	.	.	.	.	.	.	.	.	.	.	.	16e/	.	.	.	.	.	.	.
.	.	.	.	.	.	.	.	.	.	.	.	16e/	.	.	.	.	.	.	.
.	.	.	.	.	.	.	.	.	.	.	.	16e/JJ	.	.	.	.	.	.	.
=56	=56	=56	=56	=56	=56	=56	=56	=56	=56	=56	=56	=56	=56	=56	=56	=56	=56	=56	=56
4.G#X\	3	.	4.G#X\	pa-	4e\	no-	4.e\	pa-	4.b\	pa-	.	16e/LL	.	4.b\	.	2e\	.	2e\	.
.	.	.	.	.	.	.	.	.	.	.	.	16e/	.	.	.	.	.	.	.
.	.	.	.	.	.	.	.	.	.	.	.	16e/	.	.	.	.	.	.	.
.	.	.	.	.	.	.	.	.	.	.	.	16e/	.	.	.	.	.	.	.
.	.	.	.	.	4e\	-bis	.	.	.	.	.	16e/	.	.	.	.	.	.	.
.	.	.	.	.	.	.	.	.	.	.	.	16e/	.	.	.	.	.	.	.
8A\	3	.	8A\	-cem	.	.	8e\	-cem	8cc#\	-cem	.	16e/	.	8cc#\	.	.	.	.	.
.	.	.	.	.	.	.	.	.	.	.	.	16e/JJ	.	.	.	.	.	.	.
=57	=57	=57	=57	=57	=57	=57	=57	=57	=57	=57	=57	=57	=57	=57	=57	=57	=57	=57	=57
!	!	!	!LO:LB:g=original	!	!LO:LB:g=original	!	!	!	!	!	!	!	!	!	!	!LO:TX:a:t=5	!	!LO:TX:a:t=5	!
!	!	!	!	!	!	!	!	!	!	!	!	!	!	!	!	!LO:N:vis=00	!	!LO:N:vis=00	!
4B\	3	.	4B\	pa-	4e\	pa-	4e\	{pa-	4dd\	{pa-	.	16e/LL	.	4dd\	.	0r	.	0r	.
.	.	.	.	.	.	.	.	.	.	.	.	16e/	.	.	.	.	.	.	.
.	.	.	.	.	.	.	.	.	.	.	.	16e/	.	.	.	.	.	.	.
.	.	.	.	.	.	.	.	.	.	.	.	16e/	.	.	.	.	.	.	.
4A\	3	.	4A\	-cem	4e\	-cem	4e\	-cem}	4cc#\	-cem}	.	16e/	.	4cc#\	.	.	.	.	.
.	.	.	.	.	.	.	.	.	.	.	.	16e/	.	.	.	.	.	.	.
.	.	.	.	.	.	.	.	.	.	.	.	16e/	.	.	.	.	.	.	.
.	.	.	.	.	.	.	.	.	.	.	.	16e/JJ	.	.	.	.	.	.	.
=58	=58	=58	=58	=58	=58	=58	=58	=58	=58	=58	=58	=58	=58	=58	=58	=58	=58	=58	=58
*tremolo	*	*	*	*	*	*	*	*	*	*	*	*	*	*	*	*	*	*	*
8C#/L	6	.	4.C#/	Do-	4.c#\	Do-	4.e\	do-	4.a\	do-	.	8e/L	.	4.a/	.	.	.	.	.
8C#/	.	.	.	.	.	.	.	.	.	.	.	8e/	.	.	.	.	.	.	.
8C#/	.	.	.	.	.	.	.	.	.	.	.	8e/	.	.	.	.	.	.	.
8C#/J	.	.	8C#/	-na	8c#\	-na	8e\	-na	16b\LL	-na	.	8e/J	.	16b/LL	.	.	.	.	.
.	.	.	.	.	.	.	.	.	16cc#\JJ	.	.	.	.	16cc#/JJ	.	.	.	.	.
=59	=59	=59	=59	=59	=59	=59	=59	=59	=59	=59	=59	=59	=59	=59	=59	=59	=59	=59	=59
8D\L	6	.	4D\	no-	4B\	no-	4f#\	no-	8cc#\L	no-	.	8f#/L	.	(8cc#\L	.	.	.	.	.
8D\	.	.	.	.	.	.	.	.	8b\J	.	.	8f#/	.	8b\J)	.	.	.	.	.
8D\	.	.	4D\	-bis	4B\	-bis	4f#\	-bis	4b\	-bis	.	8f#/	.	4b\	.	.	.	.	.
8D\J	.	.	.	.	.	.	.	.	.	.	.	8f#/J	.	.	.	.	.	.	.
=60	=60	=60	=60	=60	=60	=60	=60	=60	=60	=60	=60	=60	=60	=60	=60	=60	=60	=60	=60
8E\L	#	.	4.E\	pa-	4.B\	Do-	4.g#X\	pa-	4.b\	pa-	.	8g#X/L	.	4.b\	.	.	.	.	.
8E\	.	.	.	.	.	.	.	.	.	.	.	8g#/	.	.	.	.	.	.	.
8E\	.	.	.	.	.	.	.	.	.	.	.	8g#/	.	.	.	.	.	.	.
8E\J	.	.	8E\	-cem	8B\	-na	8g#\	-cem	8ee\	-cem	.	8g#/J	.	8ee\	.	.	.	.	.
=61	=61	=61	=61	=61	=61	=61	=61	=61	=61	=61	=61	=61	=61	=61	=61	=61	=61	=61	=61
8F#\L	5	.	4F#\	pa-	4A\	no-	4a\	{pa-	8dd\L	{pa-	.	8a/L	.	(8dd\L	.	2r	.	2r	.
8F#\	.	.	.	.	.	.	.	.	8cc#\J	.	.	8a/	.	8cc#\J)	.	.	.	.	.
8F#\	.	.	4F#\	-cem	4A\	-bis	4a\	-cem}	4cc#\	-cem}	.	8a/	.	4cc#\	.	.	.	.	.
8F#\J	.	.	.	.	.	.	.	.	.	.	.	8a/J	.	.	.	.	.	.	.
=62	=62	=62	=62	=62	=62	=62	=62	=62	=62	=62	=62	=62	=62	=62	=62	=62	=62	=62	=62
!	!	!	!	!	!	!	!	!	!	!	!	!	!	!	!	!LO:LB:g=original	!	!	!
8C#/L	6	.	4.C#/	Do-	4.e\	Do-	4.a\	do-	4.ee\	do-	.	8a/L	.	4.ee\	.	2A/	.	2A/ 2e	.
8C#/	.	.	.	.	.	.	.	.	.	.	.	8a/	.	.	.	.	.	.	.
8C#/	.	.	.	.	.	.	.	.	.	.	.	8a/	.	.	.	.	.	.	.
8C#/J	.	.	8C#/	-na	8e\	-na	8a\	-na	8aa\	-na	.	8a/J	.	8aa\	.	.	.	.	.
=63	=63	=63	=63	=63	=63	=63	=63	=63	=63	=63	=63	=63	=63	=63	=63	=63	=63	=63	=63
!	!	!	!	!	!	!	!LO:LB:g=original	!	!	!	!	!	!	!	!	!	!	!	!
8D\L	.	.	4D\	no-	4f#\	no-	4a\	no-	8gg#X\L	no-	.	8a/L	.	8gg#X\L	.	2d\	.	2d\ 2f#	.
8D\	.	.	.	.	.	.	.	.	8ff#\J	.	.	8a/	.	8ff#\	.	.	.	.	.
8D\	.	.	4D\	-biʃ	4f#\	-bis	4a\	-bis	8ee\L	-bis	.	8a/	.	8ee\	.	.	.	.	.
8D\J	.	.	.	.	.	.	.	.	8dd\J	.	.	8a/J	.	8dd\J	.	.	.	.	.
*Xtremolo	*	*	*	*	*	*	*	*	*	*	*	*Xtremolo	*	*	*	*	*	*	*
=64	=64	=64	=64	=64	=64	=64	=64	=64	=64	=64	=64	=64	=64	=64	=64	=64	=64	=64	=64
!LO:TX:a:t=problem: mixed beam	!	!	!	!	!	!	!	!	!	!	!	!	!	!	!	!	!	!	!
8E\L	4	.	2E\	pa-	2e\	pa-	(4a\	pa-	(8cc#\L	pa-	.	4a/	.	8cc#\L	.	2e\	.	2e\	.
8E\	.	.	.	.	.	.	.	.	8a\)	.	.	.	.	8a\	.	.	.	.	.
8EE/	#	.	.	.	.	.	4g#X\)	.	(8b\	.	.	4g#X/	.	8b\	.	.	.	.	.
8EE/J	.	.	.	.	.	.	.	.	8g#X\J)	.	.	.	.	8g#X\J	.	.	.	.	.
=65	=65	=65	=65	=65	=65	=65	=65	=65	=65	=65	=65	=65	=65	=65	=65	=65	=65	=65	=65
!	!	!	!	!	!	!	!	!	!LO:LB:g=original	!	!	!	!	!LO:TX:a:t=problem: przednutka: SIC:s=8g+	!	!	!	!	!
.	.	.	.	.	.	.	.	.	.	.	.	.	.	8qqg/	.	.	.	.	.
4AA/	.	.	4AA/	-cem	4e\	-cem	4a\	-cem	4a\	-cem	.	4a/	.	4a/	.	4A/	.	4A/ 4e	.
4r	.	.	4r	.	4r	.	4r	.	4r	.	.	8r	.	8r	.	4r	.	4r	.
.	.	.	.	.	.	.	.	.	.	.	.	8A/	.	8a/	.	.	.	.	.
=66	=66	=66	=66	=66	=66	=66	=66	=66	=66	=66	=66	=66	=66	=66	=66	=66	=66	=66	=66
!LO:TX:a:t=Solo	!	!	!LO:TX:a:t=8.	!	!LO:TX:a:t=8.	!	!LO:TX:a:t=8.	!	!LO:TX:a:t=8.	!	!	!	!LO:DY:t=p:	!	!	!LO:TX:a:t=8.	!	!LO:TX:a:t=8.	!
!	!	!	!LO:N:vis=00	!	!LO:N:vis=00	!	!	!	!LO:N:vis=00	!	!	!	!LO:DY:b	!	!	!LO:N:vis=00	!	!LO:N:vis=00	!
4F#\	.	p	0r	.	0r	.	2r	.	0r	.	.	4a/	p	4aa\	p	0r	.	0r	.
8F#\L	.	.	.	.	.	.	.	.	.	.	.	8a/L	.	8aa\L	.	.	.	.	.
8G\J	.	.	.	.	.	.	.	.	.	.	.	8g/J	.	8gg\J	.	.	.	.	.
=67	=67	=67	=67	=67	=67	=67	=67	=67	=67	=67	=67	=67	=67	=67	=67	=67	=67	=67	=67
!	!	!	!	!	!	!	!	!	!	!	!	!	!	!LO:LB:g=original	!	!	!	!	!
.	.	.	.	.	.	.	.	.	.	.	.	8qqg/	.	8qqgg/	.	.	.	.	.
4A\	6	.	.	.	.	.	2r	.	.	.	.	4f#/	.	4ff#\	.	.	.	.	.
8A\L	.	.	.	.	.	.	.	.	.	.	.	8f#/L	.	(8ff#\L	.	.	.	.	.
8A#X\J	5	.	.	.	.	.	.	.	.	.	.	8e/J	.	8ee\J)	.	.	.	.	.
=68	=68	=68	=68	=68	=68	=68	=68	=68	=68	=68	=68	=68	=68	=68	=68	=68	=68	=68	=68
.	.	.	.	.	.	.	.	.	.	.	.	4qqe/	.	8qqee/	.	.	.	.	.
4B\	4	.	.	.	.	.	2r	.	.	.	.	4.d#X/	.	4.dd#X\	.	.	.	.	.
4BB/	#	.	.	.	.	.	.	.	.	.	.	.	.	.	.	.	.	.	.
.	.	.	.	.	.	.	.	.	.	.	.	8e/	.	8ee\	.	.	.	.	.
=69	=69	=69	=69	=69	=69	=69	=69	=69	=69	=69	=69	=69	=69	=69	=69	=69	=69	=69	=69
!LO:LB:g=original	!	!	!	!	!	!	!	!	!	!	!	!	!	!	!	!	!	!	!
4r	.	.	.	.	.	.	2r	.	.	.	.	8f#/L	.	8ff#'\L	.	.	.	.	.
.	.	.	.	.	.	.	.	.	.	.	.	8g/	.	8gg'\	.	.	.	.	.
4BB/	.	.	.	.	.	.	.	.	.	.	.	8a/	.	8aa'\	.	.	.	.	.
.	.	.	.	.	.	.	.	.	.	.	.	8f#/J	.	8ff#'\J	.	.	.	.	.
=70	=70	=70	=70	=70	=70	=70	=70	=70	=70	=70	=70	=70	=70	=70	=70	=70	=70	=70	=70
!	!	!	!LO:N:vis=00	!	!LO:N:vis=00	!	!	!	!LO:N:vis=00	!	!	!	!	!	!	!LO:N:vis=00	!	!LO:N:vis=00	!
4E\	.	.	0r	.	0r	.	2r	.	0r	.	.	4g/	.	4gg\	.	0r	.	0r	.
8E\L	.	.	.	.	.	.	.	.	.	.	.	8g/L	.	(8gg\L	.	.	.	.	.
8F#\J	.	.	.	.	.	.	.	.	.	.	.	8f#/J	.	8ff#\J)	.	.	.	.	.
=71	=71	=71	=71	=71	=71	=71	=71	=71	=71	=71	=71	=71	=71	=71	=71	=71	=71	=71	=71
!	!	!	!	!	!	!	!	!	!	!	!	!LO:LB:g=original	!	!	!	!	!	!	!
.	.	.	.	.	.	.	.	.	.	.	.	8qqf#/	.	8qqff#/	.	.	.	.	.
4G\	.	.	.	.	.	.	2r	.	.	.	.	4e/	.	4ee\	.	.	.	.	.
8G\L	.	.	.	.	.	.	.	.	.	.	.	8e/L	.	(8ee\L	.	.	.	.	.
8G#X\J	.	.	.	.	.	.	.	.	.	.	.	8d/J	.	8dd\J)	.	.	.	.	.
=72	=72	=72	=72	=72	=72	=72	=72	=72	=72	=72	=72	=72	=72	=72	=72	=72	=72	=72	=72
.	.	.	.	.	.	.	.	.	.	.	.	4qqd/	.	8qqdd/	.	.	.	.	.
4A\	.	.	.	.	.	.	2r	.	.	.	.	4.c#/	.	4.cc#\	.	.	.	.	.
4AA/	.	.	.	.	.	.	.	.	.	.	.	.	.	.	.	.	.	.	.
.	.	.	.	.	.	.	.	.	.	.	.	8d/	.	8dd\	.	.	.	.	.
=73	=73	=73	=73	=73	=73	=73	=73	=73	=73	=73	=73	=73	=73	=73	=73	=73	=73	=73	=73
4r	.	.	.	.	.	.	2r	.	.	.	.	8e/L	.	8ee'\L	.	.	.	.	.
.	.	.	.	.	.	.	.	.	.	.	.	8f#/	.	8ff#'\	.	.	.	.	.
4AA/	.	.	.	.	.	.	.	.	.	.	.	8g/	.	8gg'\	.	.	.	.	.
.	.	.	.	.	.	.	.	.	.	.	.	8e/J	.	8ee'\J	.	.	.	.	.
=74	=74	=74	=74	=74	=74	=74	=74	=74	=74	=74	=74	=74	=74	=74	=74	=74	=74	=74	=74
!	!	!	!	!	!	!	!	!	!	!	!	!	!LO:DY:t=for	!	!LO:DY:t=for	!	!	!	!
!LO:TX:a:t=Tutti	!	!LO:DY:t=for	!	!	!	!	!	!	!	!	!	!	!LO:DY:b	!	!LO:DY:b	!	!	!	!LO:DY:b
*tremolo	*	*	*	*	*	*	*	*	*	*	*	*tremolo	*	*	*	*	*	*	*
8D\L	.	f	4D\	Do-	4d\	Do-	4a\	do-	4ff#\	do-	.	8f#/L	f	8ff#\L	f	4d\	.	4d\ 4f#	p
8D\	.	.	.	.	.	.	.	.	.	.	.	8f#/	.	8aa\	.	.	.	.	.
8D\	.	.	4D\	-na	4d\	-na	4a\	-na	4ff#\	-na	.	8f#/	.	8aa\	.	4d\	.	4d\ 4f#	.
8D\J	.	.	.	.	.	.	.	.	.	.	.	8f#/J	.	8aa\J	.	.	.	.	.
=75	=75	=75	=75	=75	=75	=75	=75	=75	=75	=75	=75	=75	=75	=75	=75	=75	=75	=75	=75
!	!	!	!	!	!	!	!	!	!	!	!	!	!	!	!	!	!	!LO:LB:g=original	!
8C#/L	6	.	4C#\	no-	4e\	no-	4a\	no-	4ee\	no-	.	8e/L	.	8aa\L	.	4A/	.	4A/ 4e	.
8C#/	.	.	.	.	.	.	.	.	.	.	.	8e/	.	8aa\J	.	.	.	.	.
8C#/	.	.	4C#\	-biʃ	4e\	-bis	4a\	-bis	4ee\	-bis	.	8e/	.	(16aa\LL	.	4A/	.	4A/ 4e	.
.	.	.	.	.	.	.	.	.	.	.	.	.	.	16gg\	.	.	.	.	.
8C#/J	.	.	.	.	.	.	.	.	.	.	.	8e/J	.	16ff#\	.	.	.	.	.
.	.	.	.	.	.	.	.	.	.	.	.	.	.	16ee\JJ)	.	.	.	.	.
*	*	*	*	*	*	*	*	*	*	*	*	*Xtremolo	*	*	*	*	*	*	*
=76	=76	=76	=76	=76	=76	=76	=76	=76	=76	=76	=76	=76	=76	=76	=76	=76	=76	=76	=76
8D\L	.	.	2D\	pa-	2d\	pa-	2a\	pa-	2ff#\	pa-	.	8f#/L	.	8dd\L	.	2d\	.	2d\ 2f#	.
8D\	.	.	.	.	.	.	.	.	.	.	.	8f#/	.	8dd\J	.	.	.	.	.
8D\	.	.	.	.	.	.	.	.	.	.	.	8f#/	.	(16dd\LL	.	.	.	.	.
.	.	.	.	.	.	.	.	.	.	.	.	.	.	16ff#\	.	.	.	.	.
8D\J	.	.	.	.	.	.	.	.	.	.	.	8f#/J	.	16ee\	.	.	.	.	.
.	.	.	.	.	.	.	.	.	.	.	.	.	.	16dd\JJ)	.	.	.	.	.
=77	=77	=77	=77	=77	=77	=77	=77	=77	=77	=77	=77	=77	=77	=77	=77	=77	=77	=77	=77
8G\L	4 2	.	2G\	-cem	2c#\	-cem	2a\	-cem	2ee\	-cem	.	8e/L	.	2cc#\	.	2A/	.	2A/ 2e	.
8G\	.	.	.	.	.	.	.	.	.	.	.	8a/J	.	.	.	.	.	.	.
8G\	.	.	.	.	.	.	.	.	.	.	.	16a/LL	.	.	.	.	.	.	.
.	.	.	.	.	.	.	.	.	.	.	.	16g/	.	.	.	.	.	.	.
8G\J	.	.	.	.	.	.	.	.	.	.	.	16f#/	.	.	.	.	.	.	.
.	.	.	.	.	.	.	.	.	.	.	.	16e/JJ	.	.	.	.	.	.	.
=78	=78	=78	=78	=78	=78	=78	=78	=78	=78	=78	=78	=78	=78	=78	=78	=78	=78	=78	=78
!	!	!	!	!	!	!	!LO:TX:a:t=problem: repetycja tt. 74-77	!	!	!	!	!	!	!	!	!	!	!	!
8F#\L	6	.	4F#\	Do-	4d\	do-	4a\	do-	4ff#\	do-	.	8d/L	.	8dd\L	.	4d\	.	4d\ 4f#	.
8F#\	.	.	.	.	.	.	.	.	.	.	.	8a/	.	8aa\	.	.	.	.	.
8F#\	.	.	4F#\	-na	4d\	-na	4a\	-na	4ff#\	-na	.	8a/	.	8aa\	.	4d\	.	4d\ 4f#	.
8F#\J	.	.	.	.	.	.	.	.	.	.	.	8a/J	.	8aa\J	.	.	.	.	.
=79	=79	=79	=79	=79	=79	=79	=79	=79	=79	=79	=79	=79	=79	=79	=79	=79	=79	=79	=79
!	!	!	!	!	!LO:LB:g=original	!	!	!	!	!	!	!	!	!LO:LB:g=original	!	!	!	!	!
*	*	*	*	*	*	*	*	*	*	*	*	*tremolo	*	*	*	*	*	*	*
8C#/L	6	.	4C#/	no-	4e\	no-	4a\	no-	4ee\	no-	.	8e/L	.	8aa\L	.	4A/	.	4A/ 4e	.
8C#/	.	.	.	.	.	.	.	.	.	.	.	8e/	.	8aa\J	.	.	.	.	.
8C#/	.	.	4C#/	-biʃ	4e\	-bis	4a\	-bis	4ee\	-bis	.	8e/	.	(16aa\LL	.	4A/	.	4A/ 4e	.
.	.	.	.	.	.	.	.	.	.	.	.	.	.	16gg\	.	.	.	.	.
8C#/J	.	.	.	.	.	.	.	.	.	.	.	8e/J	.	16ff#\	.	.	.	.	.
.	.	.	.	.	.	.	.	.	.	.	.	.	.	16ee\JJ)	.	.	.	.	.
=80	=80	=80	=80	=80	=80	=80	=80	=80	=80	=80	=80	=80	=80	=80	=80	=80	=80	=80	=80
8D\L	.	.	2D\	pa-	2d\	pa-	2a\	pa-	2ff#\	pa-	.	8f#/L	.	8dd\L	.	2d\	.	2d\ 2f#	.
8D\	.	.	.	.	.	.	.	.	.	.	.	8f#/	.	8dd\J	.	.	.	.	.
8D\	.	.	.	.	.	.	.	.	.	.	.	8f#/	.	(16dd\LL	.	.	.	.	.
.	.	.	.	.	.	.	.	.	.	.	.	.	.	16ff#\	.	.	.	.	.
8D\J	.	.	.	.	.	.	.	.	.	.	.	8f#/J	.	16ee\	.	.	.	.	.
.	.	.	.	.	.	.	.	.	.	.	.	.	.	16dd\JJ)	.	.	.	.	.
*	*	*	*	*	*	*	*	*	*	*	*	*Xtremolo	*	*	*	*	*	*	*
=81	=81	=81	=81	=81	=81	=81	=81	=81	=81	=81	=81	=81	=81	=81	=81	=81	=81	=81	=81
!	!	!	!	!	!	!	!	!	!	!	!	!	!	!	!	!LO:TX:a:t=problem:brak kreski taktowej	!	!	!
.	.	.	.	.	.	.	.	.	.	.	.	.	.	8qqdd/	.	.	.	.	.
8G\L	4 2	.	2G\	-cem	2c#\	-cem	2a\	-cem	2ee\	-cem	.	8e/L	.	2cc#\	.	2A/	.	2A/ 2e	.
8G\	.	.	.	.	.	.	.	.	.	.	.	8a/J	.	.	.	.	.	.	.
8G\	.	.	.	.	.	.	.	.	.	.	.	16a/LL	.	.	.	.	.	.	.
.	.	.	.	.	.	.	.	.	.	.	.	16g/	.	.	.	.	.	.	.
8G\J	.	.	.	.	.	.	.	.	.	.	.	16f#/	.	.	.	.	.	.	.
.	.	.	.	.	.	.	.	.	.	.	.	16e/JJ	.	.	.	.	.	.	.
=82	=82	=82	=82	=82	=82	=82	=82	=82	=82	=82	=82	=82	=82	=82	=82	=82	=82	=82	=82
!	!	!	!	!	!	!	!	!	!	!	!	!	!	!	!	!	!	!	!LO:DY:t=p:
!	!	!	!	!	!	!	!	!	!	!	!	!LO:TX:a:t=problem: mixed beam	!	!	!	!	!	!	!LO:DY:b
8F#\L	6	.	4F#\	Do-	4d\	Do-	4a\	do-	4dd\	do-	.	16d/LL	.	4dd\	.	[2d\	.	[2d\	p
.	.	.	.	.	.	.	.	.	.	.	.	16dd\	.	.	.	.	.	.	.
8F#\	.	.	.	.	.	.	.	.	.	.	.	16dd\	.	.	.	.	.	.	.
.	.	.	.	.	.	.	.	.	.	.	.	16dd\JJ	.	.	.	.	.	.	.
*	*	*	*	*	*	*	*	*	*	*	*	*tremolo	*	*	*	*	*	*	*
8F#\	.	.	4F#\	-na	4d\	-na	4a\	-na	4dd\	-na	.	16dd\LL	.	8.ddd\L	.	.	.	.	.
.	.	.	.	.	.	.	.	.	.	.	.	16dd\	.	.	.	.	.	.	.
8F#\J	.	.	.	.	.	.	.	.	.	.	.	16dd\	.	.	.	.	.	.	.
.	.	.	.	.	.	.	.	.	.	.	.	16dd\JJ	.	16ddd\Jk	.	.	.	.	.
=83	=83	=83	=83	=83	=83	=83	=83	=83	=83	=83	=83	=83	=83	=83	=83	=83	=83	=83	=83
8G\L	.	.	4G\	no-	4d\	no-	4b\	no-	4dd\	no-	.	16dd\LL	.	4bb\	.	2d\_	.	2d\_	.
.	.	.	.	.	.	.	.	.	.	.	.	16dd\	.	.	.	.	.	.	.
8G\	.	.	.	.	.	.	.	.	.	.	.	16dd\	.	.	.	.	.	.	.
.	.	.	.	.	.	.	.	.	.	.	.	16dd\	.	.	.	.	.	.	.
8G\	.	.	4G\	-bis	4d\	-bis	4b\	-bis	4dd\	-bis	.	16dd\	.	8.ddd\L	.	.	.	.	.
.	.	.	.	.	.	.	.	.	.	.	.	16dd\	.	.	.	.	.	.	.
8G\J	.	.	.	.	.	.	.	.	.	.	.	16dd\	.	.	.	.	.	.	.
.	.	.	.	.	.	.	.	.	.	.	.	16dd\JJ	.	16ddd\Jk	.	.	.	.	.
=84	=84	=84	=84	=84	=84	=84	=84	=84	=84	=84	=84	=84	=84	=84	=84	=84	=84	=84	=84
8F#\L	6	.	4F#\	Do-	4d\	do-	4a\	do-	4dd\	{do-	.	16dd\LL	.	4aa\	.	2d\_	.	2d\_	.
.	.	.	.	.	.	.	.	.	.	.	.	16dd\	.	.	.	.	.	.	.
8F#\	.	.	.	.	.	.	.	.	.	.	.	16dd\	.	.	.	.	.	.	.
.	.	.	.	.	.	.	.	.	.	.	.	16dd\	.	.	.	.	.	.	.
8F#\	.	.	4F#\	-na	4d\	-na	4a\	-na	4dd\	-na	.	16dd\	.	8.ddd\L	.	.	.	.	.
.	.	.	.	.	.	.	.	.	.	.	.	16dd\	.	.	.	.	.	.	.
8F#\J	.	.	.	.	.	.	.	.	.	.	.	16dd\	.	.	.	.	.	.	.
.	.	.	.	.	.	.	.	.	.	.	.	16dd\JJ	.	16ddd\Jk	.	.	.	.	.
=85	=85	=85	=85	=85	=85	=85	=85	=85	=85	=85	=85	=85	=85	=85	=85	=85	=85	=85	=85
8G\L	.	.	4G\	no-	4d\	no-	4b\	no-	4dd\	no-	.	16dd\LL	.	4bb\	.	2d\_	.	2d\_	.
.	.	.	.	.	.	.	.	.	.	.	.	16dd\	.	.	.	.	.	.	.
8G\	.	.	.	.	.	.	.	.	.	.	.	16dd\	.	.	.	.	.	.	.
.	.	.	.	.	.	.	.	.	.	.	.	16dd\	.	.	.	.	.	.	.
8G\	.	.	4G\	-bis	4d\	-bis	4b\	-bis	4dd\	-bis}	.	16dd\	.	8.ddd\L	.	.	.	.	.
.	.	.	.	.	.	.	.	.	.	.	.	16dd\	.	.	.	.	.	.	.
8G\J	.	.	.	.	.	.	.	.	.	.	.	16dd\	.	.	.	.	.	.	.
.	.	.	.	.	.	.	.	.	.	.	.	16dd\JJ	.	16ddd\Jk	.	.	.	.	.
=86	=86	=86	=86	=86	=86	=86	=86	=86	=86	=86	=86	=86	=86	=86	=86	=86	=86	=86	=86
8A\L	4	.	2A\	pa-	2f#\	pa-	2a\	pa-	2dd\	pa-	.	16dd\LL	.	16ff#\LL	.	(2d\]	.	2d\] 2f#	.
.	.	.	.	.	.	.	.	.	.	.	.	16dd\	.	16ff#\	.	.	.	.	.
8A\	.	.	.	.	.	.	.	.	.	.	.	16dd\	.	16ff#\	.	.	.	.	.
.	.	.	.	.	.	.	.	.	.	.	.	16dd\	.	16ff#\JJ	.	.	.	.	.
*	*	*	*	*	*	*	*	*	*	*	*	*	*	*tremolo	*	*	*	*	*
8A\	.	.	.	.	.	.	.	.	.	.	.	16dd\	.	16ff#\LL	.	.	.	.	.
.	.	.	.	.	.	.	.	.	.	.	.	16dd\	.	16ff#\	.	.	.	.	.
8A\J	.	.	.	.	.	.	.	.	.	.	.	16dd\	.	16ff#\	.	.	.	.	.
.	.	.	.	.	.	.	.	.	.	.	.	16dd\JJ	.	16ff#\JJ	.	.	.	.	.
=87	=87	=87	=87	=87	=87	=87	=87	=87	=87	=87	=87	=87	=87	=87	=87	=87	=87	=87	=87
8AA/L	3	.	2AA/	.	2e\	.	2a\	.	2cc#\	-cem	.	16cc#\LL	.	16ee\LL	.	2A/)	.	2A/ 2e	.
.	.	.	.	.	.	.	.	.	.	.	.	16cc#\	.	16ee\	.	.	.	.	.
8AA/	.	.	.	.	.	.	.	.	.	.	.	16cc#\	.	16ee\	.	.	.	.	.
.	.	.	.	.	.	.	.	.	.	.	.	16cc#\	.	16ee\JJ	.	.	.	.	.
8AA/	.	.	.	.	.	.	.	.	.	.	.	16cc#\	.	16ee\LL	.	.	.	.	.
.	.	.	.	.	.	.	.	.	.	.	.	16cc#\	.	16ee\	.	.	.	.	.
8AA/J	.	.	.	.	.	.	.	.	.	.	.	16cc#\	.	16ee\	.	.	.	.	.
.	.	.	.	.	.	.	.	.	.	.	.	16cc#\JJ	.	16ee\JJ	.	.	.	.	.
*Xtremolo	*	*	*	*	*	*	*	*	*	*	*	*Xtremolo	*	*Xtremolo	*	*	*	*	*
=88	=88	=88	=88	=88	=88	=88	=88	=88	=88	=88	=88	=88	=88	=88	=88	=88	=88	=88	=88
!LO:TX:a:t=Solo	!	!	!	!	!	!	!	!	!LO:LB:g=original	!	!	!	!	!	!	!	!	!	!
4D\	.	.	4D\	-cem	4f#\	-cem	4a\	-cem	4dd\	cem	.	4dd\	.	4dd\	.	4F#/	.	4F#/ 4d	.
4r	.	.	4r	.	4r	.	4r	.	4r	.	.	4r	.	4r	.	4r	.	4r	.
=89	=89	=89	=89	=89	=89	=89	=89	=89	=89	=89	=89	=89	=89	=89	=89	=89	=89	=89	=89
!LO:LB:g=original	!	!	!LO:TX:a:t=41	!	!LO:TX:a:t=41	!	!LO:TX:a:t=25	!	!LO:TX:a:t=Solo	!	!	!	!	!	!LO:DY:t=p.	!	!	!	!
!	!	!	!	!	!	!	!	!	!LO:TX:a:t=Dolce	!	!	!	!LO:DY:b	!	!LO:DY:b	!LO:TX:a:t=41	!	!LO:TX:a:t=41	!
4r	.	.	2r	.	2r	.	2r	.	4.b\	do-	.	4r	p	4.b\	p	2r	.	2r	.
!	!	!	!	!	!	!	!	!	!	!	!	!LO:TX:a:t=problem: defekt rkp	!	!	!	!	!	!	!
4d\	6	p	.	.	.	.	.	.	.	.	.	4f#/yy	.	.	.	.	.	.	.
.	.	.	.	.	.	.	.	.	8b\	-na	.	.	.	16cc#\LL	.	.	.	.	.
.	.	.	.	.	.	.	.	.	.	.	.	.	.	16b\JJ	.	.	.	.	.
=90	=90	=90	=90	=90	=90	=90	=90	=90	=90	=90	=90	=90	=90	=90	=90	=90	=90	=90	=90
!	!	!	!	!	!	!	!	!	!	!	!	!LO:LB:g=original	!	!	!	!	!	!	!
4F#\ 4c#	7	.	2r	.	2r	.	2r	.	8b\L	no-	.	4e/	.	(8b\L	.	2r	.	2r	.
.	6|	.	.	.	.	.	.	.	8a#X\J	.	.	.	.	8a#X\J)	.	.	.	.	.
4E\ 4c#	.	.	.	.	.	.	.	.	4a#\	-bis	.	4e/	.	4a#\	.	.	.	.	.
=91	=91	=91	=91	=91	=91	=91	=91	=91	=91	=91	=91	=91	=91	=91	=91	=91	=91	=91	=91
!	!	!	!	!	!	!	!	!	!	!	!	!	!	!LO:LB:g=original	!	!	!	!	!
4r	.	.	2r	.	2r	.	2r	.	4.ee\	pa-	.	4r	.	4.ee\	.	2r	.	2r	.
4A#X\	6 5	.	.	.	.	.	.	.	.	.	.	4f#/	.	.	.	.	.	.	.
.	.	.	.	.	.	.	.	.	8ee\	-cem	.	.	.	8ee\	.	.	.	.	.
=92	=92	=92	=92	=92	=92	=92	=92	=92	=92	=92	=92	=92	=92	=92	=92	=92	=92	=92	=92
4B\	4	.	2r	.	2r	.	2r	.	8ee\L	{pa-	.	4f#/	.	(8ee\L	.	2r	.	2r	.
.	3	.	.	.	.	.	.	.	8dd\J	.	.	.	.	8dd\	.	.	.	.	.
4BB/	.	.	.	.	.	.	.	.	8cc#\L	-cem}	.	4f#/	.	8cc#\	.	.	.	.	.
.	.	.	.	.	.	.	.	.	8b\J	.	.	.	.	8b\J)	.	.	.	.	.
=93	=93	=93	=93	=93	=93	=93	=93	=93	=93	=93	=93	=93	=93	=93	=93	=93	=93	=93	=93
4r	.	.	2r	.	2r	.	2r	.	4.ff#\	do-	.	4r	.	4.ff#\	.	2r	.	2r	.
4D\	6	.	.	.	.	.	.	.	.	.	.	4f#/	.	.	.	.	.	.	.
.	.	.	.	.	.	.	.	.	8b\	-na	.	.	.	8b\	.	.	.	.	.
=94	=94	=94	=94	=94	=94	=94	=94	=94	=94	=94	=94	=94	=94	=94	=94	=94	=94	=94	=94
4E\	.	.	2r	.	2r	.	2r	.	4.gg\	no-	.	4B/	.	4.gg\	.	2r	.	2r	.
4EE/	.	.	.	.	.	.	.	.	.	.	.	4B/	.	.	.	.	.	.	.
.	.	.	.	.	.	.	.	.	8ff#\	-bis	.	.	.	8ff#\	.	.	.	.	.
=95	=95	=95	=95	=95	=95	=95	=95	=95	=95	=95	=95	=95	=95	=95	=95	=95	=95	=95	=95
4r	.	.	2r	.	2r	.	2r	.	8ee\L	pa-	.	4r	.	(8ee\L	.	2r	.	2r	.
.	.	.	.	.	.	.	.	.	8dd\	.	.	.	.	8dd\	.	.	.	.	.
4E\	6	.	.	.	.	.	.	.	(8cc#\	.	.	4g/	.	8cc#\	.	.	.	.	.
.	5	.	.	.	.	.	.	.	8b\J)	.	.	.	.	8b\J)	.	.	.	.	.
=96	=96	=96	=96	=96	=96	=96	=96	=96	=96	=96	=96	=96	=96	=96	=96	=96	=96	=96	=96
.	.	.	.	.	.	.	.	.	8qqb/	.	.	.	.	8qqb/	.	.	.	.	.
8F#\L	#	.	2r	.	2r	.	2r	.	4a#X\	-cem	.	4c#/	.	4a#X/	.	2r	.	2r	.
8E\	.	.	.	.	.	.	.	.	.	.	.	.	.	.	.	.	.	.	.
8D\	.	.	.	.	.	.	.	.	4r	.	.	4r	.	4r	.	.	.	.	.
8C#\J	.	.	.	.	.	.	.	.	.	.	.	.	.	.	.	.	.	.	.
=97	=97	=97	=97	=97	=97	=97	=97	=97	=97	=97	=97	=97	=97	=97	=97	=97	=97	=97	=97
4BB/	.	.	2r	.	2r	.	2r	.	4.b\	do-	.	4r	.	4.b\	.	2r	.	2r	.
4d\	6	.	.	.	.	.	.	.	.	.	.	4f#/	.	.	.	.	.	.	.
.	.	.	.	.	.	.	.	.	8b\	-na	.	.	.	16cc#\LL	.	.	.	.	.
.	.	.	.	.	.	.	.	.	.	.	.	.	.	16b\JJ	.	.	.	.	.
=98	=98	=98	=98	=98	=98	=98	=98	=98	=98	=98	=98	=98	=98	=98	=98	=98	=98	=98	=98
4c#\	7	.	2r	.	2r	.	2r	.	8b\L	no-	.	4e/	.	(8b\L	.	2r	.	2r	.
.	6|	.	.	.	.	.	.	.	8a#X\J	.	.	.	.	8a#X\J)	.	.	.	.	.
4c#\	.	.	.	.	.	.	.	.	4a#\	-bis	.	4e/	.	4a#\	.	.	.	.	.
=99	=99	=99	=99	=99	=99	=99	=99	=99	=99	=99	=99	=99	=99	=99	=99	=99	=99	=99	=99
4r	.	.	2r	.	2r	.	2r	.	4.ee\	pa-	.	4r	.	4.ee\	.	2r	.	2r	.
4A#X\	6 5	.	.	.	.	.	.	.	.	.	.	4f#/	.	.	.	.	.	.	.
.	.	.	.	.	.	.	.	.	8ee\	-cem	.	.	.	8ee\	.	.	.	.	.
=100	=100	=100	=100	=100	=100	=100	=100	=100	=100	=100	=100	=100	=100	=100	=100	=100	=100	=100	=100
4B\	4	.	2r	.	2r	.	2r	.	(8ee\L	pa-	.	4f#/	.	(8ee\L	.	2r	.	2r	.
.	3	.	.	.	.	.	.	.	8dd\J)	.	.	.	.	8dd\	.	.	.	.	.
4BB/	.	.	.	.	.	.	.	.	(8cc#\L	-cem	.	4f#/	.	8cc#\	.	.	.	.	.
.	.	.	.	.	.	.	.	.	8b\J)	.	.	.	.	8b\J)	.	.	.	.	.
=101	=101	=101	=101	=101	=101	=101	=101	=101	=101	=101	=101	=101	=101	=101	=101	=101	=101	=101	=101
!	!	!	!	!	!	!	!	!	!LO:LB:g=original	!	!	!	!	!	!	!	!	!	!
4r	.	.	2r	.	2r	.	2r	.	4.dd#X\	do-	.	4r	.	4.dd#X\	.	2r	.	2r	.
4A\	4| 2	.	.	.	.	.	.	.	.	.	.	4f#/	.	.	.	.	.	.	.
.	.	.	.	.	.	.	.	.	8dd#\	-na	.	.	.	8dd#\	.	.	.	.	.
=102	=102	=102	=102	=102	=102	=102	=102	=102	=102	=102	=102	=102	=102	=102	=102	=102	=102	=102	=102
!	!	!	!	!	!	!	!	!	!	!	!	!	!	!	!LO:DY:a	!	!	!	!
4G\	5	.	2r	.	2r	.	2r	.	8ee\L	no-	.	4b/	.	(8ee\L	<	2r	.	2r	.
.	.	.	.	.	.	.	.	.	8ff#\J	.	.	.	.	8ff#\	.	.	.	.	.
4E\	.	.	.	.	.	.	.	.	8gg\L	-bis	.	4g/	.	8gg\	.	.	.	.	.
.	.	.	.	.	.	.	.	.	8ee\J	.	.	.	.	8ee\J)	[[	.	.	.	.
=103	=103	=103	=103	=103	=103	=103	=103	=103	=103	=103	=103	=103	=103	=103	=103	=103	=103	=103	=103
4r	.	.	2r	.	2r	.	2r	.	4.cc#\	pa-	.	4r	.	4.cc#\	.	2r	.	2r	.
4G\	4| 2	.	.	.	.	.	.	.	.	.	.	4e/	.	.	.	.	.	.	.
.	.	.	.	.	.	.	.	.	8cc#\	-cem	.	.	.	8cc#\	.	.	.	.	.
=104	=104	=104	=104	=104	=104	=104	=104	=104	=104	=104	=104	=104	=104	=104	=104	=104	=104	=104	=104
!	!	!	!	!	!	!	!	!	!	!	!	!	!	!	!LO:DY:a	!	!	!	!
4F#\	6	.	2r	.	2r	.	2r	.	8dd\L	{pa-	.	4a/	.	(8dd\L	<	2r	.	2r	.
.	.	.	.	.	.	.	.	.	8ee\J	.	.	.	.	8ee\	.	.	.	.	.
4D\	.	.	.	.	.	.	.	.	8ff#\L	-cem}	.	4f#/	.	8ff#\	.	.	.	.	.
.	.	.	.	.	.	.	.	.	8dd\J	.	.	.	.	8dd\J)	[[	.	.	.	.
=105	=105	=105	=105	=105	=105	=105	=105	=105	=105	=105	=105	=105	=105	=105	=105	=105	=105	=105	=105
!	!	!	!	!	!	!	!	!	!	!	!	!	!	!LO:LB:g=original	!	!	!	!	!
4r	.	.	2r	.	2r	.	2r	.	4.aa\	do-	.	4r	.	4.aa\	.	2r	.	2r	.
4F#\	6	.	.	.	.	.	.	.	.	.	.	4d/	.	.	.	.	.	.	.
.	.	.	.	.	.	.	.	.	8a\	-na	.	.	.	8a/	.	.	.	.	.
=106	=106	=106	=106	=106	=106	=106	=106	=106	=106	=106	=106	=106	=106	=106	=106	=106	=106	=106	=106
!LO:LB:g=original	!	!	!	!	!	!	!	!	!	!	!	!	!	!	!	!	!	!	!
4G\	.	.	2r	.	2r	.	2r	.	4b\	no-	.	4d/	.	4dd\	.	2r	.	2r	.
4GG/	.	.	.	.	.	.	.	.	8gg\L	-bis	.	8b/L	.	(8gg\L	.	.	.	.	.
.	.	.	.	.	.	.	.	.	8ff#\J	.	.	8a/J	.	8ff#\J)	.	.	.	.	.
=107	=107	=107	=107	=107	=107	=107	=107	=107	=107	=107	=107	=107	=107	=107	=107	=107	=107	=107	=107
4r	.	.	2r	.	2r	.	2r	.	(8ff#\L	pa-	.	(8a/L	.	(8ff#\L	.	2r	.	2r	.
.	.	.	.	.	.	.	.	.	8ee\)	.	.	8g/)	.	8ee\)	.	.	.	.	.
4G#X\	6	.	.	.	.	.	.	.	(8ee\	.	.	(8g/	.	(8ee\	.	.	.	.	.
.	5	.	.	.	.	.	.	.	8dd\J)	.	.	8f#/J)	.	8dd\J)	.	.	.	.	.
=108	=108	=108	=108	=108	=108	=108	=108	=108	=108	=108	=108	=108	=108	=108	=108	=108	=108	=108	=108
.	.	.	.	.	.	.	.	.	8qqdd/	.	.	.	.	8qqdd/	.	.	.	.	.
4.A\	.	.	2r	.	2r	.	2r	.	4cc#\	-cem	.	4e/	.	4cc#\	.	2r	.	2r	.
.	.	.	.	.	.	.	.	.	4r	.	.	8r	.	8r	.	.	.	.	.
8A\	.	.	.	.	.	.	.	.	.	.	.	8a/	.	8a/	.	.	.	.	.
=109	=109	=109	=109	=109	=109	=109	=109	=109	=109	=109	=109	=109	=109	=109	=109	=109	=109	=109	=109
!	!	!	!	!	!	!	!	!	!	!	!	!	!LO:DY:t=for	!	!LO:DY:t=for	!	!	!	!
!	!	!LO:DY:t=for	!	!	!	!	!	!	!LO:TX:a:t=21.	!	!	!	!LO:DY:b	!	!LO:DY:b	!	!	!	!
8A`\L	.	f	2r	.	2r	.	2r	.	2r	.	.	8a/L	f	8a`/L	f	2r	.	2r	.
8B`\	.	.	.	.	.	.	.	.	.	.	.	8b/	.	8b`/	.	.	.	.	.
8G#X`\	.	.	.	.	.	.	.	.	.	.	.	8g#X/	.	8g#X`/	.	.	.	.	.
8B`\J	.	.	.	.	.	.	.	.	.	.	.	8b/J	.	8b`/J	.	.	.	.	.
=110	=110	=110	=110	=110	=110	=110	=110	=110	=110	=110	=110	=110	=110	=110	=110	=110	=110	=110	=110
!	!	!	!	!	!	!	!	!	!	!	!	!LO:LB:g=original	!	!	!	!	!	!	!
4.A\	.	.	2r	.	2r	.	2r	.	2r	.	.	4.a/	.	4.a/	.	2r	.	2r	.
!	!	!	!	!	!	!	!	!	!	!	!	!LO:TX:a:t=SIC:s=8g#	!	!	!	!	!	!	!
8G#X\	.	.	.	.	.	.	.	.	.	.	.	8g/	.	8g#X/	.	.	.	.	.
=111	=111	=111	=111	=111	=111	=111	=111	=111	=111	=111	=111	=111	=111	=111	=111	=111	=111	=111	=111
8A`\L	.	.	2r	.	2r	.	2r	.	2r	.	.	8a/L	.	8a`/L	.	2r	.	2r	.
8B`\	.	.	.	.	.	.	.	.	.	.	.	8b/	.	8b`/	.	.	.	.	.
!	!	!	!	!	!	!	!	!	!	!	!	!LO:TX:a:t=SIC:s=8g#	!	!	!	!	!	!	!
8G#X`\	.	.	.	.	.	.	.	.	.	.	.	8g/	.	8g#X`/	.	.	.	.	.
8B`\J	.	.	.	.	.	.	.	.	.	.	.	8b/J	.	8b`/J	.	.	.	.	.
=112	=112	=112	=112	=112	=112	=112	=112	=112	=112	=112	=112	=112	=112	=112	=112	=112	=112	=112	=112
8A`\L	.	.	2r	.	2r	.	2r	.	2r	.	.	8a/L	.	8a/L	.	2r	.	2r	.
8B`\	.	.	.	.	.	.	.	.	.	.	.	8b/	.	8b/	.	.	.	.	.
8Gn`\	.	.	.	.	.	.	.	.	.	.	.	8gn/	.	8gn/	.	.	.	.	.
8A`\J	.	.	.	.	.	.	.	.	.	.	.	8a/J	.	8a/J	.	.	.	.	.
=113	=113	=113	=113	=113	=113	=113	=113	=113	=113	=113	=113	=113	=113	=113	=113	=113	=113	=113	=113
8F#\L	.	.	2r	.	2r	.	2r	.	2r	.	.	8f#/L	.	8f#'/L	.	2r	.	2r	.
8G\	.	.	.	.	.	.	.	.	.	.	.	8g/	.	8g'/	.	.	.	.	.
8E\	.	.	.	.	.	.	.	.	.	.	.	8e/	.	8e'/	.	.	.	.	.
8F#\J	.	.	.	.	.	.	.	.	.	.	.	8f#/J	.	8f#'/J	.	.	.	.	.
=114	=114	=114	=114	=114	=114	=114	=114	=114	=114	=114	=114	=114	=114	=114	=114	=114	=114	=114	=114
!	!	!	!	!	!	!	!	!	!	!	!	!	!	!	!LO:DY:t=p.	!	!	!	!
!	!	!	!	!	!	!	!	!	!	!	!	!	!	!	!LO:DY:b	!	!	!	!
.	.	.	.	.	.	.	.	.	.	.	.	.	.	16qqd/LL	p	.	.	.	.
!	!	!	!	!	!	!	!	!	!	!	!	!	!LO:DY:t=p:	!	!	!	!	!	!
!	!	!	!	!	!	!	!	!	!	!	!	!	!LO:DY:b	!	!	!	!	!	!
.	.	.	.	.	.	.	.	.	.	.	.	4qqe/	p	16qqf#/JJ	.	.	.	.	.
4D\	.	p	2r	.	2r	.	4.a\	Do-	2r	.	.	4.f#/	.	4.a/	.	2r	.	2r	.
4DD/	.	.	.	.	.	.	.	.	.	.	.	.	.	.	.	.	.	.	.
.	.	.	.	.	.	.	16f#\LL	-na	.	.	.	16d/LL	.	16f#/LL	.	.	.	.	.
.	.	.	.	.	.	.	16g\JJ	.	.	.	.	16e/JJ	.	16g/JJ	.	.	.	.	.
=115	=115	=115	=115	=115	=115	=115	=115	=115	=115	=115	=115	=115	=115	=115	=115	=115	=115	=115	=115
4r	.	.	2r	.	2r	.	8a\L	no-	2r	.	.	8f#/L	.	8a/L	.	2r	.	2r	.
.	.	.	.	.	.	.	8f#\J	.	.	.	.	8d/	.	8f#/	.	.	.	.	.
4BB/	.	.	.	.	.	.	8b\L	-bis	.	.	.	8g/	.	8b/	.	.	.	.	.
.	.	.	.	.	.	.	8g\J	.	.	.	.	8f#/J	.	8a/J	.	.	.	.	.
=116	=116	=116	=116	=116	=116	=116	=116	=116	=116	=116	=116	=116	=116	=116	=116	=116	=116	=116	=116
4E\	4	.	2r	.	2r	.	8a\L	pa-	2r	.	.	8f#/L	.	8a/L	.	2r	.	2r	.
.	3	.	.	.	.	.	8g\	.	.	.	.	8e/	.	8g/	.	.	.	.	.
4EE/	.	.	.	.	.	.	8f#\	.	.	.	.	8d#X/	.	8f#/	.	.	.	.	.
.	.	.	.	.	.	.	8e\J	.	.	.	.	8e/J	.	8e/J	.	.	.	.	.
=117	=117	=117	=117	=117	=117	=117	=117	=117	=117	=117	=117	=117	=117	=117	=117	=117	=117	=117	=117
!	!	!	!	!	!	!	!LO:LB:g=original	!	!	!	!	!	!	!	!	!	!	!	!
.	.	.	.	.	.	.	8qqd#X/	.	.	.	.	.	.	8qqd#X/	.	.	.	.	.
8E\L	.	.	2r	.	2r	.	4e\	-cem	2r	.	.	4e/	.	4e/	.	2r	.	2r	.
8D\	.	.	.	.	.	.	.	.	.	.	.	.	.	.	.	.	.	.	.
8C#\	.	.	.	.	.	.	4r	.	.	.	.	4r	.	4r	.	.	.	.	.
8BB\J	.	.	.	.	.	.	.	.	.	.	.	.	.	.	.	.	.	.	.
=118	=118	=118	=118	=118	=118	=118	=118	=118	=118	=118	=118	=118	=118	=118	=118	=118	=118	=118	=118
!	!	!	!	!	!	!	!	!	!	!	!	!	!	!LO:LB:g=original	!	!	!	!	!
4AA/	7	.	2r	.	2r	.	4.g\	Do-	2r	.	.	4.e/	.	4.g/	.	2r	.	2r	.
4A\	.	.	.	.	.	.	.	.	.	.	.	.	.	.	.	.	.	.	.
.	.	.	.	.	.	.	16e\LL	-na	.	.	.	16c#/LL	.	16e/LL	.	.	.	.	.
.	.	.	.	.	.	.	16f#\JJ	.	.	.	.	16d/JJ	.	16f#/JJ	.	.	.	.	.
=119	=119	=119	=119	=119	=119	=119	=119	=119	=119	=119	=119	=119	=119	=119	=119	=119	=119	=119	=119
4r	.	.	2r	.	2r	.	8g\L	no-	2r	.	.	8e/L	.	8g/L	.	2r	.	2r	.
.	.	.	.	.	.	.	8e\J	.	.	.	.	8c#/	.	8e/	.	.	.	.	.
4AA/	7	.	.	.	.	.	8a\L	-bis	.	.	.	8f#/	.	8a/	.	.	.	.	.
!	!	!	!	!	!	!	!LO:TX:a:t=SIC:s=4g	!	!	!	!	!	!	!	!	!	!	!	!
.	.	.	.	.	.	.	8f#\J	.	.	.	.	8e/J	.	8g/J	.	.	.	.	.
=120	=120	=120	=120	=120	=120	=120	=120	=120	=120	=120	=120	=120	=120	=120	=120	=120	=120	=120	=120
4D\	4	.	2r	.	2r	.	8g\L	pa-	2r	.	.	8e/L	.	8g/L	.	2r	.	2r	.
.	.	.	.	.	.	.	8f#\	.	.	.	.	8d/	.	8f#/	.	.	.	.	.
4DD/	3	.	.	.	.	.	8e\	.	.	.	.	8c#/	.	8e/	.	.	.	.	.
.	.	.	.	.	.	.	8d\J	.	.	.	.	8d/J	.	8d/J	.	.	.	.	.
=121	=121	=121	=121	=121	=121	=121	=121	=121	=121	=121	=121	=121	=121	=121	=121	=121	=121	=121	=121
.	.	.	.	.	.	.	8qqc#/	.	.	.	.	.	.	8qqc#/	.	.	.	.	.
8r	.	.	2r	.	2r	.	4d\	-cem	2r	.	.	4d/	.	4d/	.	2r	.	2r	.
8G\	.	.	.	.	.	.	.	.	.	.	.	.	.	.	.	.	.	.	.
8F#\L	.	.	.	.	.	.	4r	.	.	.	.	4r	.	4r	.	.	.	.	.
8E\J	.	.	.	.	.	.	.	.	.	.	.	.	.	.	.	.	.	.	.
=122	=122	=122	=122	=122	=122	=122	=122	=122	=122	=122	=122	=122	=122	=122	=122	=122	=122	=122	=122
!LO:LB:g=original	!	!	!	!	!	!	!	!	!	!	!	!	!	!	!	!	!	!	!
*tremolo	*	*	*	*	*	*	*	*	*	*	*	*tremolo	*	*	*	*	*	*	*
8F#\L	6	.	2r	.	2r	.	4.d\	do-	2r	.	.	8A/L	.	4.d/	.	2r	.	2r	.
8F#\	.	.	.	.	.	.	.	.	.	.	.	8A/	.	.	.	.	.	.	.
8F#\	.	.	.	.	.	.	.	.	.	.	.	8A/	.	.	.	.	.	.	.
8F#\J	.	.	.	.	.	.	8f#\	-na	.	.	.	8A/J	.	16e/LL	.	.	.	.	.
.	.	.	.	.	.	.	.	.	.	.	.	.	.	16f#/JJ	.	.	.	.	.
=123	=123	=123	=123	=123	=123	=123	=123	=123	=123	=123	=123	=123	=123	=123	=123	=123	=123	=123	=123
8G\L	6	.	2r	.	2r	.	8f#\L	no-	2r	.	.	8B/L	.	(8f#/L	.	2r	.	2r	.
8G\	.	.	.	.	.	.	8e\J	.	.	.	.	8B/	.	8e/J)	.	.	.	.	.
8G\	.	.	.	.	.	.	4e\	-bis	.	.	.	8B/	.	4e/	.	.	.	.	.
8G\J	.	.	.	.	.	.	.	.	.	.	.	8B/J	.	.	.	.	.	.	.
=124	=124	=124	=124	=124	=124	=124	=124	=124	=124	=124	=124	=124	=124	=124	=124	=124	=124	=124	=124
8A\L	5	.	2r	.	2r	.	4.e\	do-	2r	.	.	8c#/L	.	4.e/	.	2r	.	2r	.
8A\	7	.	.	.	.	.	.	.	.	.	.	8c#/	.	.	.	.	.	.	.
8A\	.	.	.	.	.	.	.	.	.	.	.	8c#/	.	.	.	.	.	.	.
8A\J	.	.	.	.	.	.	8g\	-na	.	.	.	8c#/J	.	8a/	.	.	.	.	.
=125	=125	=125	=125	=125	=125	=125	=125	=125	=125	=125	=125	=125	=125	=125	=125	=125	=125	=125	=125
8B\L	5	.	2r	.	2r	.	8g\L	no-	2r	.	.	8d/L	.	(8g/L	.	2r	.	2r	.
8B\	.	.	.	.	.	.	8f#\J	.	.	.	.	8d/	.	8f#/J)	.	.	.	.	.
8B\	.	.	.	.	.	.	4f#\	-bis	.	.	.	8d/	.	4f#/	.	.	.	.	.
8B\J	.	.	.	.	.	.	.	.	.	.	.	8d/J	.	.	.	.	.	.	.
=126	=126	=126	=126	=126	=126	=126	=126	=126	=126	=126	=126	=126	=126	=126	=126	=126	=126	=126	=126
8F#\L	6	.	2r	.	2r	.	4.a\	Do-	2r	.	.	8d/L	.	4.a/	.	2r	.	2r	.
8F#\	.	.	.	.	.	.	.	.	.	.	.	8d/	.	.	.	.	.	.	.
8F#\	.	.	.	.	.	.	.	.	.	.	.	8d/	.	.	.	.	.	.	.
8F#\J	.	.	.	.	.	.	8dd\	-na	.	.	.	8d/J	.	8dd/	.	.	.	.	.
=127	=127	=127	=127	=127	=127	=127	=127	=127	=127	=127	=127	=127	=127	=127	=127	=127	=127	=127	=127
8G\L	.	.	2r	.	2r	.	8cc#\L	no-	2r	.	.	8d/L	.	(8cc#/L	.	2r	.	2r	.
8G\	.	.	.	.	.	.	8b\J	.	.	.	.	8d/	.	8b/)	.	.	.	.	.
8G\	.	.	.	.	.	.	8a\L	-bis	.	.	.	8d/	.	(8a/	.	.	.	.	.
8G\J	.	.	.	.	.	.	8g\J	.	.	.	.	8d/J	.	8g/J)	.	.	.	.	.
*Xtremolo	*	*	*	*	*	*	*	*	*	*	*	*Xtremolo	*	*	*	*	*	*	*
=128	=128	=128	=128	=128	=128	=128	=128	=128	=128	=128	=128	=128	=128	=128	=128	=128	=128	=128	=128
!LO:TX:a:t=problem: mixed beam	!	!	!	!	!	!	!	!	!	!	!	!LO:LB:g=original	!	!	!	!	!	!	!
8A\L	.	.	2r	.	2r	.	8f#\L	pa-	2r	.	.	8d/L	.	(8f#/L	.	2r	.	2r	.
8A\	.	.	.	.	.	.	8d\	.	.	.	.	8d/	.	8d/)	.	.	.	.	.
8AA/	.	.	.	.	.	.	8e\	.	.	.	.	8c#/	.	(8e/	.	.	.	.	.
8AA/J	.	.	.	.	.	.	8c#\J	.	.	.	.	8c#/J	.	8c#/J)	.	.	.	.	.
=129	=129	=129	=129	=129	=129	=129	=129	=129	=129	=129	=129	=129	=129	=129	=129	=129	=129	=129	=129
4D\	.	.	2r	.	2r	.	4d\	-cem	2r	.	.	4d/	.	4d/	.	2r	.	2r	.
4r	.	.	.	.	.	.	4r	.	.	.	.	4r	.	4r	.	.	.	.	.
=130	=130	=130	=130	=130	=130	=130	=130	=130	=130	=130	=130	=130	=130	=130	=130	=130	=130	=130	=130
!	!	!	!	!	!	!	!	!	!	!	!	!	!	!	!	!LO:LB:g=original	!	!	!
.	.	.	.	.	.	.	16qqg/	.	.	.	.	.	.	.	.	.	.	.	.
!	!	!	!	!	!	!	!	!	!	!	!	!	!LO:DY:t=for	!	!LO:DY:t=for	!	!	!	!
!	!	!LO:DY:t=for	!	!	!	!	!	!	!	!	!	!	!LO:DY:b	!	!LO:DY:b	!	!	!	!
*	*	*	*	*	*	*	*	*	*	*	*	*tremolo	*	*	*	*	*	*	*
4F#\	6	f	4F#\	Do-	4.d\	Do-	4.a\	do-	4.a\	Do-	.	16a/LL	f	4.aa\	f	2A/	.	2A/	.
.	.	.	.	.	.	.	.	.	.	.	.	16a/	.	.	.	.	.	.	.
.	.	.	.	.	.	.	.	.	.	.	.	16a/	.	.	.	.	.	.	.
.	.	.	.	.	.	.	.	.	.	.	.	16a/	.	.	.	.	.	.	.
4D\	.	.	4D\	-na	.	.	.	.	.	.	.	16a/	.	.	.	.	.	.	.
.	.	.	.	.	.	.	.	.	.	.	.	16a/	.	.	.	.	.	.	.
.	.	.	.	.	8d\	-na	8b\	-na	8a\	-na	.	16a/	.	8bb\	.	.	.	.	.
.	.	.	.	.	.	.	.	.	.	.	.	16a/JJ	.	.	.	.	.	.	.
=131	=131	=131	=131	=131	=131	=131	=131	=131	=131	=131	=131	=131	=131	=131	=131	=131	=131	=131	=131
!	!	!	!	!	!	!	!	!	!	!	!	!	!	!	!	!LO:TX:a:t=1	!	!	!
2E\	4	.	4E\	no-	4c#\	no-	8a\L	no-	4a\	no-	.	16a/LL	.	8aa\L	.	2r	.	2r	.
.	3	.	.	.	.	.	.	.	.	.	.	16a/	.	.	.	.	.	.	.
.	.	.	.	.	.	.	8g\J	.	.	.	.	16a/	.	8gg\J	.	.	.	.	.
.	.	.	.	.	.	.	.	.	.	.	.	16a/	.	.	.	.	.	.	.
.	.	.	4E\	-bis	4c#\	-bis	4g\	-bis	4a\	-biʃ	.	16a/	.	4gg\	.	.	.	.	.
.	.	.	.	.	.	.	.	.	.	.	.	16a/	.	.	.	.	.	.	.
.	.	.	.	.	.	.	.	.	.	.	.	16a/	.	.	.	.	.	.	.
.	.	.	.	.	.	.	.	.	.	.	.	16a/JJ	.	.	.	.	.	.	.
=132	=132	=132	=132	=132	=132	=132	=132	=132	=132	=132	=132	=132	=132	=132	=132	=132	=132	=132	=132
!	!	!	!LO:LB:g=original	!	!	!	!LO:LB:g=original	!	!	!	!	!	!	!LO:LB:g=original	!	!	!	!	!
4.C#/	3	.	4.C#\	pa-	4A\	no-	4.e\	do-	4.a\	pa-	.	16a/LL	.	4.ee\	.	2A/	.	2A/	.
.	.	.	.	.	.	.	.	.	.	.	.	16a/	.	.	.	.	.	.	.
.	.	.	.	.	.	.	.	.	.	.	.	16a/	.	.	.	.	.	.	.
.	.	.	.	.	.	.	.	.	.	.	.	16a/	.	.	.	.	.	.	.
.	.	.	.	.	4A\	-bis	.	.	.	.	.	16a/	.	.	.	.	.	.	.
.	.	.	.	.	.	.	.	.	.	.	.	16a/	.	.	.	.	.	.	.
8D/	3	.	8D\	-cem	.	.	8f#\	-na	8a\	-cem	.	16a/	.	8ff#\	.	.	.	.	.
.	.	.	.	.	.	.	.	.	.	.	.	16a/JJ	.	.	.	.	.	.	.
=133	=133	=133	=133	=133	=133	=133	=133	=133	=133	=133	=133	=133	=133	=133	=133	=133	=133	=133	=133
!	!	!	!	!	!	!	!	!	!	!	!	!	!	!	!	!LO:TX:a:t=1	!	!	!
4E\	3	.	4E\	pa-	4c#\	pa-	4g\	no-	4a\	do-	.	16a/LL	.	4gg\	.	2r	.	2r	.
.	.	.	.	.	.	.	.	.	.	.	.	16a/	.	.	.	.	.	.	.
.	.	.	.	.	.	.	.	.	.	.	.	16a/	.	.	.	.	.	.	.
.	.	.	.	.	.	.	.	.	.	.	.	16a/	.	.	.	.	.	.	.
4D\	3	.	4D\	-cem	4d\	-cem	4f#\	-bis	4a\	-na	.	16a/	.	4ff#\	.	.	.	.	.
.	.	.	.	.	.	.	.	.	.	.	.	16a/	.	.	.	.	.	.	.
.	.	.	.	.	.	.	.	.	.	.	.	16a/	.	.	.	.	.	.	.
.	.	.	.	.	.	.	.	.	.	.	.	16a/JJ	.	.	.	.	.	.	.
=134	=134	=134	=134	=134	=134	=134	=134	=134	=134	=134	=134	=134	=134	=134	=134	=134	=134	=134	=134
!	!	!	!	!	!	!	!	!	!	!	!	!LO:TX:a:t=problem: repetycja tt. 129-132	!	!	!	!	!	!	!
4F#\	6	.	4F#\	Do-	4.d\	Do-	4.a\	do-	4.a\	no-	.	16a/LL	.	4.aa\	.	2A/	.	2A/	.
.	.	.	.	.	.	.	.	.	.	.	.	16a/	.	.	.	.	.	.	.
.	.	.	.	.	.	.	.	.	.	.	.	16a/	.	.	.	.	.	.	.
.	.	.	.	.	.	.	.	.	.	.	.	16a/	.	.	.	.	.	.	.
4D\	.	.	4D\	-na	.	.	.	.	.	.	.	16a/	.	.	.	.	.	.	.
.	.	.	.	.	.	.	.	.	.	.	.	16a/	.	.	.	.	.	.	.
.	.	.	.	.	8d\	-na	8b\	-na	8a\	-bis	.	16a/	.	8bb\	.	.	.	.	.
.	.	.	.	.	.	.	.	.	.	.	.	16a/JJ	.	.	.	.	.	.	.
=135	=135	=135	=135	=135	=135	=135	=135	=135	=135	=135	=135	=135	=135	=135	=135	=135	=135	=135	=135
!	!	!	!	!	!LO:LB:g=original	!	!	!	!	!	!	!	!	!	!	!	!	!LO:LB:g=original	!
!	!	!	!	!	!	!	!	!	!	!	!	!	!	!	!	!LO:TX:a:t=1	!	!	!
2E\	4	.	4E\	no-	4c#\	no-	8a\L	no-	4a\	pa-	.	16a/LL	.	8aa\L	.	2r	.	2r	.
.	3	.	.	.	.	.	.	.	.	.	.	16a/	.	.	.	.	.	.	.
.	.	.	.	.	.	.	8g\J	.	.	.	.	16a/	.	8gg\J	.	.	.	.	.
.	.	.	.	.	.	.	.	.	.	.	.	16a/	.	.	.	.	.	.	.
.	.	.	4E\	-bis	4c#\	-bis	4g\	-bis	4a\	-cem	.	16a/	.	4gg\	.	.	.	.	.
.	.	.	.	.	.	.	.	.	.	.	.	16a/	.	.	.	.	.	.	.
.	.	.	.	.	.	.	.	.	.	.	.	16a/	.	.	.	.	.	.	.
.	.	.	.	.	.	.	.	.	.	.	.	16a/JJ	.	.	.	.	.	.	.
=136	=136	=136	=136	=136	=136	=136	=136	=136	=136	=136	=136	=136	=136	=136	=136	=136	=136	=136	=136
4.C#/	3	.	4.C#/	pa-	4A\	no-	4.e\	do-	4.a\	pa-	.	16a/LL	.	4.ee\	.	2A/	.	2A/	.
.	.	.	.	.	.	.	.	.	.	.	.	16a/	.	.	.	.	.	.	.
.	.	.	.	.	.	.	.	.	.	.	.	16a/	.	.	.	.	.	.	.
.	.	.	.	.	.	.	.	.	.	.	.	16a/	.	.	.	.	.	.	.
.	.	.	.	.	4A\	-bis	.	.	.	.	.	16a/	.	.	.	.	.	.	.
.	.	.	.	.	.	.	.	.	.	.	.	16a/	.	.	.	.	.	.	.
8D/	3	.	8D/	-cem	.	.	8f#\	-na	8a\	-ce	.	16a/	.	8ff#\	.	.	.	.	.
.	.	.	.	.	.	.	.	.	.	.	.	16a/JJ	.	.	.	.	.	.	.
=137	=137	=137	=137	=137	=137	=137	=137	=137	=137	=137	=137	=137	=137	=137	=137	=137	=137	=137	=137
!	!	!	!	!	!	!	!	!	!	!	!	!	!	!	!	!LO:TX:a:t=5	!	!LO:TX:a:t=5	!
!	!	!	!	!	!	!	!	!	!	!	!	!	!	!	!	!LO:N:vis=00	!	!LO:N:vis=00	!
4E\	3	.	4E\	pa-	4c#\	pa-	4g\	no-	4a\	do-	.	16a/LL	.	4gg\	.	0r	.	0r	.
.	.	.	.	.	.	.	.	.	.	.	.	16a/	.	.	.	.	.	.	.
.	.	.	.	.	.	.	.	.	.	.	.	16a/	.	.	.	.	.	.	.
.	.	.	.	.	.	.	.	.	.	.	.	16a/	.	.	.	.	.	.	.
4D\	3	.	4D\	-cem	4d\	-cem	4f#\	-bis	4a\	-na	.	16a/	.	4ff#\	.	.	.	.	.
.	.	.	.	.	.	.	.	.	.	.	.	16a/	.	.	.	.	.	.	.
.	.	.	.	.	.	.	.	.	.	.	.	16a/	.	.	.	.	.	.	.
.	.	.	.	.	.	.	.	.	.	.	.	16a/JJ	.	.	.	.	.	.	.
=138	=138	=138	=138	=138	=138	=138	=138	=138	=138	=138	=138	=138	=138	=138	=138	=138	=138	=138	=138
*tremolo	*	*	*	*	*	*	*	*	*	*	*	*	*	*	*	*	*	*	*
8F#\L	6	.	4.F#\	Do-	4.d\	Do-	4.d\	-do-	4.a\	no-	.	8a/L	.	4.dd\	.	.	.	.	.
8F#\	.	.	.	.	.	.	.	.	.	.	.	8a/	.	.	.	.	.	.	.
8F#\	.	.	.	.	.	.	.	.	.	.	.	8a/	.	.	.	.	.	.	.
8F#\J	.	.	8F#\	-na	8d\	-na	16e\LL	-na	8a\	-bis	.	8a/J	.	16ee\LL	.	.	.	.	.
.	.	.	.	.	.	.	16f#\JJ	.	.	.	.	.	.	16ff#\JJ	.	.	.	.	.
=139	=139	=139	=139	=139	=139	=139	=139	=139	=139	=139	=139	=139	=139	=139	=139	=139	=139	=139	=139
8G\L	6	.	4G\	no-	4B\	no-	8f#\L	no-	4b\	{no-	.	8b\L	.	(8ff#\L	.	.	.	.	.
8G\	.	.	.	.	.	.	8e\J	.	.	.	.	8b\	.	8ee\J)	.	.	.	.	.
8G\	.	.	4G\	-bis	4B\	-bis	4e\	-bis	4b\	-bis}	.	8b\	.	4ee\	.	.	.	.	.
8G\J	.	.	.	.	.	.	.	.	.	.	.	8b\J	.	.	.	.	.	.	.
=140	=140	=140	=140	=140	=140	=140	=140	=140	=140	=140	=140	=140	=140	=140	=140	=140	=140	=140	=140
8A\L	5	.	4.A\	pa-	4e\	pa-	4.e\	no-	4.cc#\	pa-	.	8cc#\L	.	4.ee\	.	.	.	.	.
8A\	7	.	.	.	.	.	.	.	.	.	.	8cc#\	.	.	.	.	.	.	.
8A\	.	.	.	.	4e\	-cem	.	.	.	.	.	8cc#\	.	.	.	.	.	.	.
8A\J	.	.	8A\	-cem	.	.	8g\	-bis	8cc#\	-cem	.	8cc#\J	.	8aa\	.	.	.	.	.
=141	=141	=141	=141	=141	=141	=141	=141	=141	=141	=141	=141	=141	=141	=141	=141	=141	=141	=141	=141
!LO:LB:g=original	!	!	!	!	!	!	!	!	!	!	!	!	!	!	!	!	!	!	!
8B\L	5	.	4B\	{pa-	4d\	pa-	8g\L	pa-	8dd\	do-	.	8dd\L	.	(8gg\L	.	2r	.	2r	.
8B\	.	.	.	.	.	.	8f#\J	.	4.dd\	-na	.	8dd\	.	8ff#\J)	.	.	.	.	.
8B\	.	.	4B\	-cem}	4d\	-cem	4f#\	-cem	.	.	.	8dd\	.	4ff#\	.	.	.	.	.
8B\J	.	.	.	.	.	.	.	.	.	.	.	8dd\J	.	.	.	.	.	.	.
=142	=142	=142	=142	=142	=142	=142	=142	=142	=142	=142	=142	=142	=142	=142	=142	=142	=142	=142	=142
8F#\L	6	.	4.F#\	Do-	4.d\	Do-	4.a\	Do-	4.dd\	no-	.	8dd\L	.	4.aa\	.	[2d\	.	[2d\	.
8F#\	.	.	.	.	.	.	.	.	.	.	.	8dd\	.	.	.	.	.	.	.
8F#\	.	.	.	.	.	.	.	.	.	.	.	8dd\	.	.	.	.	.	.	.
8F#\J	.	.	8F#\	-na	8A\	-na	8dd\	-na	8dd\	-bis	.	8dd\J	.	8ddd\	.	.	.	.	.
=143	=143	=143	=143	=143	=143	=143	=143	=143	=143	=143	=143	=143	=143	=143	=143	=143	=143	=143	=143
8G\L	.	.	4G\	no-	4c#\	no-	8cc#\L	no-	4dd\	{no-	.	8dd\L	.	(8ccc#\L	.	4d\]	.	4d\]	.
8G\	.	.	.	.	.	.	8b\J	.	.	.	.	8dd\	.	8bb\	.	.	.	.	.
8G\	.	.	4G\	-biʃ	4B\	-bis	8a\L	-bis	4dd\	-bis}	.	8dd\	.	8aa\	.	4r	.	4r	.
8G\J	.	.	.	.	.	.	8g\J	.	.	.	.	8dd\J	.	8gg\J)	.	.	.	.	.
*Xtremolo	*	*	*	*	*	*	*	*	*	*	*	*Xtremolo	*	*	*	*	*	*	*
=144	=144	=144	=144	=144	=144	=144	=144	=144	=144	=144	=144	=144	=144	=144	=144	=144	=144	=144	=144
*	*	*	*	*	*	*	*	*	*	*	*	*	*	*	*	*	*	*^	*
!LO:TX:a:t=problem: mixed beam	!	!	!LO:LB:g=original	!	!	!	!	!	!	!	!	!	!	!	!	!	!	!	!	!
8A\L	4	.	2A\	pa-	2A\	pa-	4f#\	pa-	4dd\	pa-	.	4dd\	.	8ff#\L	.	4d\	.	4f#/	4d\	.
8A\	.	.	.	.	.	.	.	.	.	.	.	.	.	8dd\	.	.	.	.	.	.
8AA/	3	.	.	.	.	.	4e\	.	4cc#\	.	.	4cc#\	.	8ee\	.	4A/	.	4A/ 4e	4ryy	.
8AA/J	.	.	.	.	.	.	.	.	.	.	.	.	.	8cc#\J	.	.	.	.	.	.
*	*	*	*	*	*	*	*	*	*	*	*	*	*	*	*	*	*	*v	*v	*
=145	=145	=145	=145	=145	=145	=145	=145	=145	=145	=145	=145	=145	=145	=145	=145	=145	=145	=145	=145
4D\	.	.	4D\	-cem	4A\	-cem	4d\	-cem	4dd\	-cem	.	4dd\	.	4dd\	.	4F#/	.	4F#/ 4d	.
4r	.	.	4r	.	4r	.	4r	.	4r	.	.	8r	.	8r	.	4r	.	4r	.
.	.	.	.	.	.	.	.	.	.	.	.	8A/	.	8a/	.	.	.	.	.
=146	=146	=146	=146	=146	=146	=146	=146	=146	=146	=146	=146	=146	=146	=146	=146	=146	=146	=146	=146
*	*	*	*	*	*	*	*	*	*	*	*	*	*	*	*	*	*	*	*
!	!	!	!LO:TX:a:t=8	!	!LO:TX:a:t=8	!	!	!	!LO:LB:g=original	!	!	!	!LO:DY:t=for	!	!	!	!	!	!
!	!	!	!	!	!	!	!LO:TX:a:t=8	!	!LO:TX:a:t=8.	!	!	!	!LO:DY:b	!	!LO:DY:b	!LO:TX:a:t=8.	!	!LO:TX:a:t=8	!
!	!	!	!LO:N:vis=00	!	!LO:N:vis=00	!	!LO:N:vis=00	!	!LO:N:vis=00	!	!	!	!	!	!	!LO:N:vis=00	!	!LO:N:vis=00	!
4F#\	.	p	0r	.	0r	.	0r	.	0r	.	.	4a/	f	4aa\	p	0r	.	0r	.
8F#\L	.	.	.	.	.	.	.	.	.	.	.	8a/L	.	(8aa\L	.	.	.	.	.
8F#\J	.	.	.	.	.	.	.	.	.	.	.	8g/J	.	8gg\J)	.	.	.	.	.
*	*	*	*	*	*	*	*	*	*	*	*	*	*	*	*	*	*	*	*
=147	=147	=147	=147	=147	=147	=147	=147	=147	=147	=147	=147	=147	=147	=147	=147	=147	=147	=147	=147
!	!	!	!	!	!	!	!	!	!	!	!	!	!	!LO:LB:g=original	!	!	!	!	!
.	.	.	.	.	.	.	.	.	.	.	.	.	.	8qqgg/	.	.	.	.	.
4A\	6	.	.	.	.	.	.	.	.	.	.	4f#/	.	4ff#\	.	.	.	.	.
8A\L	.	.	.	.	.	.	.	.	.	.	.	8f#/L	.	(8ff#\L	.	.	.	.	.
8A#X\J	5	.	.	.	.	.	.	.	.	.	.	8e/J	.	8ee\J)	.	.	.	.	.
=148	=148	=148	=148	=148	=148	=148	=148	=148	=148	=148	=148	=148	=148	=148	=148	=148	=148	=148	=148
.	.	.	.	.	.	.	.	.	.	.	.	4qqe/	.	8qqee/	.	.	.	.	.
4B\	4	.	.	.	.	.	.	.	.	.	.	4.d#X/	.	4.dd#X\	.	.	.	.	.
4BB/	#	.	.	.	.	.	.	.	.	.	.	.	.	.	.	.	.	.	.
.	.	.	.	.	.	.	.	.	.	.	.	8e/	.	8ee\	.	.	.	.	.
=149	=149	=149	=149	=149	=149	=149	=149	=149	=149	=149	=149	=149	=149	=149	=149	=149	=149	=149	=149
4r	.	.	.	.	.	.	.	.	.	.	.	8f#/L	.	8ff#\L	.	.	.	.	.
.	.	.	.	.	.	.	.	.	.	.	.	8g/	.	8gg\	.	.	.	.	.
4BB/	#	.	.	.	.	.	.	.	.	.	.	8a/	.	8aa\	.	.	.	.	.
.	.	.	.	.	.	.	.	.	.	.	.	8f#/J	.	8ff#\J	.	.	.	.	.
=150	=150	=150	=150	=150	=150	=150	=150	=150	=150	=150	=150	=150	=150	=150	=150	=150	=150	=150	=150
!	!	!	!LO:N:vis=00	!	!LO:N:vis=00	!	!LO:N:vis=00	!	!LO:N:vis=00	!	!	!	!	!	!	!LO:N:vis=00	!	!LO:N:vis=00	!
4E\	.	.	0r	.	0r	.	0r	.	0r	.	.	4g/	.	4gg\	.	0r	.	0r	.
8E\L	.	.	.	.	.	.	.	.	.	.	.	8g/L	.	8gg\L	.	.	.	.	.
8F#\J	.	.	.	.	.	.	.	.	.	.	.	8f#/J	.	8ff#\J	.	.	.	.	.
=151	=151	=151	=151	=151	=151	=151	=151	=151	=151	=151	=151	=151	=151	=151	=151	=151	=151	=151	=151
.	.	.	.	.	.	.	.	.	.	.	.	.	.	8qqff#/	.	.	.	.	.
4G\	6	.	.	.	.	.	.	.	.	.	.	4e/	.	4ee\	.	.	.	.	.
8G\L	.	.	.	.	.	.	.	.	.	.	.	8e/L	.	(8ee\L	.	.	.	.	.
8G#X\J	5	.	.	.	.	.	.	.	.	.	.	8d/J	.	8dd\J)	.	.	.	.	.
=152	=152	=152	=152	=152	=152	=152	=152	=152	=152	=152	=152	=152	=152	=152	=152	=152	=152	=152	=152
!	!	!	!	!	!	!	!	!	!	!	!	!LO:LB:g=original	!	!	!	!	!	!	!
.	.	.	.	.	.	.	.	.	.	.	.	8qqd/	.	8qqdd/	.	.	.	.	.
4A\	4	.	.	.	.	.	.	.	.	.	.	4.c#/	.	4.cc#\	.	.	.	.	.
4AA/	3	.	.	.	.	.	.	.	.	.	.	.	.	.	.	.	.	.	.
.	.	.	.	.	.	.	.	.	.	.	.	8d/	.	8dd\	.	.	.	.	.
=153	=153	=153	=153	=153	=153	=153	=153	=153	=153	=153	=153	=153	=153	=153	=153	=153	=153	=153	=153
4r	.	.	.	.	.	.	.	.	.	.	.	8e/L	.	8ee\L	.	.	.	.	.
.	.	.	.	.	.	.	.	.	.	.	.	8f#/	.	8ff#\	.	.	.	.	.
4AA/	.	.	.	.	.	.	.	.	.	.	.	8g/	.	8gg\	.	.	.	.	.
.	.	.	.	.	.	.	.	.	.	.	.	8e/J	.	8ee\J	.	.	.	.	.
=154	=154	=154	=154	=154	=154	=154	=154	=154	=154	=154	=154	=154	=154	=154	=154	=154	=154	=154	=154
!	!	!	!	!	!	!	!	!	!	!	!	!	!LO:DY:t=for	!	!LO:DY:t=for	!	!	!	!
!	!	!LO:DY:t=for	!	!	!	!	!	!	!	!	!	!	!LO:DY:b	!	!LO:DY:b	!	!	!	!
*tremolo	*	*	*	*	*	*	*	*	*	*	*	*tremolo	*	*	*	*	*	*	*
8D\L	.	f	4D\	Do-	4d\	Do-	4a\	do-	4ff#\	Do-	.	8f#/L	f	8ff#\L	f	4d\	.	4d\ 4f#	.
8D\	.	.	.	.	.	.	.	.	.	.	.	8f#/	.	8aa\	.	.	.	.	.
8D\	.	.	4D\	-na	4d\	-na	4a\	-na	4ff#\	-na	.	8f#/	.	8aa\	.	4d\	.	4d\ 4f#	.
8D\J	.	.	.	.	.	.	.	.	.	.	.	8f#/J	.	8aa\J	.	.	.	.	.
=155	=155	=155	=155	=155	=155	=155	=155	=155	=155	=155	=155	=155	=155	=155	=155	=155	=155	=155	=155
8C#/L	6	.	4C#\	no-	4e\	no-	4a\	no-	4ee\	no-	.	8e/L	.	8aa\L	.	4A/	.	4A/ 4e	.
8C#/	.	.	.	.	.	.	.	.	.	.	.	8e/	.	8aa\J	.	.	.	.	.
8C#/	.	.	4C#\	-biʃ	4e\	-bis	4a\	-bis	4ee\	-bis	.	8e/	.	(16aa\LL	.	4A/	.	4A/ 4e	.
.	.	.	.	.	.	.	.	.	.	.	.	.	.	16gg\	.	.	.	.	.
8C#/J	.	.	.	.	.	.	.	.	.	.	.	8e/J	.	16ff#\	.	.	.	.	.
.	.	.	.	.	.	.	.	.	.	.	.	.	.	16ee\JJ)	.	.	.	.	.
=156	=156	=156	=156	=156	=156	=156	=156	=156	=156	=156	=156	=156	=156	=156	=156	=156	=156	=156	=156
8D\L	.	.	2D\	pa-	2d\	pa-	2a\	pa-	2ff#\	pa-	.	8f#/L	.	8dd\L	.	2d\	.	2d\ 2f#	.
8D\	.	.	.	.	.	.	.	.	.	.	.	8f#/	.	8dd\J	.	.	.	.	.
8D\	.	.	.	.	.	.	.	.	.	.	.	8f#/	.	(16dd\LL	.	.	.	.	.
.	.	.	.	.	.	.	.	.	.	.	.	.	.	16ff#\	.	.	.	.	.
8D\J	.	.	.	.	.	.	.	.	.	.	.	8f#/J	.	16ee\	.	.	.	.	.
.	.	.	.	.	.	.	.	.	.	.	.	.	.	16dd\JJ)	.	.	.	.	.
*	*	*	*	*	*	*	*	*	*	*	*	*Xtremolo	*	*	*	*	*	*	*
=157	=157	=157	=157	=157	=157	=157	=157	=157	=157	=157	=157	=157	=157	=157	=157	=157	=157	=157	=157
!	!	!	!	!	!LO:LB:g=original	!	!	!	!	!	!	!	!	!	!	!	!	!	!
.	.	.	.	.	.	.	.	.	.	.	.	.	.	8qqdd/	.	.	.	.	.
8G\L	4 2	.	2G\	-cem	2c#\	-cem	2a\	-cem	2ee\	-cem	.	8e/L	.	2cc#\	.	2A/	.	2A/ 2e	.
8G\	.	.	.	.	.	.	.	.	.	.	.	8a/J	.	.	.	.	.	.	.
8G\	.	.	.	.	.	.	.	.	.	.	.	16a/LL	.	.	.	.	.	.	.
.	.	.	.	.	.	.	.	.	.	.	.	16g/	.	.	.	.	.	.	.
8G\J	.	.	.	.	.	.	.	.	.	.	.	16f#/	.	.	.	.	.	.	.
.	.	.	.	.	.	.	.	.	.	.	.	16e/JJ	.	.	.	.	.	.	.
=158	=158	=158	=158	=158	=158	=158	=158	=158	=158	=158	=158	=158	=158	=158	=158	=158	=158	=158	=158
!	!	!	!	!	!	!	!LO:TX:a:t=problem: repetycja tt. 154-157	!	!	!	!	!	!	!LO:LB:g=original	!	!	!	!	!
8F#\L	6	.	4F#\	Do-	4d\	do-	4a\	do-	4ff#\	do-	.	8d/L	.	8dd\L	.	4d\	.	4d\ 4f#	.
8F#\	.	.	.	.	.	.	.	.	.	.	.	8a/	.	8aa\	.	.	.	.	.
8F#\	.	.	4F#\	-na	4d\	-na	4a\	-na	4ff#\	-na	.	8a/	.	8aa\	.	4d\	.	4d\ 4f#	.
8F#\J	.	.	.	.	.	.	.	.	.	.	.	8a/J	.	8aa\J	.	.	.	.	.
=159	=159	=159	=159	=159	=159	=159	=159	=159	=159	=159	=159	=159	=159	=159	=159	=159	=159	=159	=159
!	!	!	!	!	!	!	!	!	!	!	!	!	!	!	!	!	!	!	!
*	*	*	*	*	*	*	*	*	*	*	*	*tremolo	*	*	*	*	*	*	*
8C#/L	6	.	4C#/	no-	4e\	no-	4a\	no-	4ee\	no-	.	8e/L	.	8aa\L	.	4A/	.	4A/ 4e	.
8C#/	.	.	.	.	.	.	.	.	.	.	.	8e/	.	8aa\J	.	.	.	.	.
8C#/	.	.	4C#/	-bis	4e\	-bis	4a\	-bis	4ee\	-bis	.	8e/	.	(16aa\LL	.	4A/	.	4A/ 4e	.
.	.	.	.	.	.	.	.	.	.	.	.	.	.	16gg\	.	.	.	.	.
8C#/J	.	.	.	.	.	.	.	.	.	.	.	8e/J	.	16ff#\	.	.	.	.	.
.	.	.	.	.	.	.	.	.	.	.	.	.	.	16ee\JJ)	.	.	.	.	.
=160	=160	=160	=160	=160	=160	=160	=160	=160	=160	=160	=160	=160	=160	=160	=160	=160	=160	=160	=160
!	!	!	!	!	!	!	!	!	!	!	!	!	!	!	!	!	!	!ERRROR	!
8D\L	.	.	2D\	pa-	2d\	pa-	2a\	pa-	2ff#\	pa-	.	8f#/L	.	8dd\L	.	2d\	.	2d\ 2f#	.
8D\	.	.	.	.	.	.	.	.	.	.	.	8f#/	.	8dd\J	.	.	.	.	.
8D\	.	.	.	.	.	.	.	.	.	.	.	8f#/	.	(16dd\LL	.	.	.	.	.
.	.	.	.	.	.	.	.	.	.	.	.	.	.	16ff#\	.	.	.	.	.
8D\J	.	.	.	.	.	.	.	.	.	.	.	8f#/J	.	16ee\	.	.	.	.	.
.	.	.	.	.	.	.	.	.	.	.	.	.	.	16dd\JJ)	.	.	.	.	.
*	*	*	*	*	*	*	*	*	*	*	*	*Xtremolo	*	*	*	*	*	*	*
=161	=161	=161	=161	=161	=161	=161	=161	=161	=161	=161	=161	=161	=161	=161	=161	=161	=161	=161	=161
*	*	*	*	*	*	*	*	*	*	*	*	*	*	*	*	*	*	*	*
.	.	.	.	.	.	.	.	.	.	.	.	.	.	4qqcc#/	.	.	.	.	.
8G\L	4 2	.	2G\	-cem	2c#\	-cem	2a\	-cem	2ee\	-cem	.	8e/L	.	2cc#\	.	2A/	.	2A/ 2e	.
8G\	.	.	.	.	.	.	.	.	.	.	.	8a/J	.	.	.	.	.	.	.
8G\	.	.	.	.	.	.	.	.	.	.	.	16a/LL	.	.	.	.	.	.	.
.	.	.	.	.	.	.	.	.	.	.	.	16g/	.	.	.	.	.	.	.
8G\J	.	.	.	.	.	.	.	.	.	.	.	16f#/	.	.	.	.	.	.	.
.	.	.	.	.	.	.	.	.	.	.	.	16e/JJ	.	.	.	.	.	.	.
*	*	*	*	*	*	*	*	*	*	*	*	*	*	*	*	*	*	*	*
=162	=162	=162	=162	=162	=162	=162	=162	=162	=162	=162	=162	=162	=162	=162	=162	=162	=162	=162	=162
!	!	!	!	!	!	!	!LO:LB:g=original	!	!	!	!	!LO:TX:a:t=problem: mixed beam	!	!	!	!	!	!	!
8F#\L	6	.	4F#\	Do-	4d\	Do-	4a\	do-	4dd\	do-	.	16d/LL	.	4dd\	.	[2d\	.	[2d\	.
.	.	.	.	.	.	.	.	.	.	.	.	16dd\	.	.	.	.	.	.	.
8F#\	.	.	.	.	.	.	.	.	.	.	.	16dd\	.	.	.	.	.	.	.
.	.	.	.	.	.	.	.	.	.	.	.	16dd\JJ	.	.	.	.	.	.	.
*	*	*	*	*	*	*	*	*	*	*	*	*tremolo	*	*	*	*	*	*	*
8F#\	.	.	4F#\	-na	4d\	-na	4a\	-na	4dd\	-na	.	16dd\LL	.	8.ddd\L	.	.	.	.	.
.	.	.	.	.	.	.	.	.	.	.	.	16dd\	.	.	.	.	.	.	.
8F#\J	.	.	.	.	.	.	.	.	.	.	.	16dd\	.	.	.	.	.	.	.
.	.	.	.	.	.	.	.	.	.	.	.	16dd\JJ	.	16ddd\Jk	.	.	.	.	.
=163	=163	=163	=163	=163	=163	=163	=163	=163	=163	=163	=163	=163	=163	=163	=163	=163	=163	=163	=163
8G\L	.	.	4G\	no-	4d\	no-	4b\	no-	4dd\	no-	.	16dd\LL	.	4bb\	.	2d\_	.	2d\_	.
.	.	.	.	.	.	.	.	.	.	.	.	16dd\	.	.	.	.	.	.	.
8G\	.	.	.	.	.	.	.	.	.	.	.	16dd\	.	.	.	.	.	.	.
.	.	.	.	.	.	.	.	.	.	.	.	16dd\	.	.	.	.	.	.	.
8G\	.	.	4G\	-bis	4d\	-bis	4b\	-bis	4dd\	-bis	.	16dd\	.	8.ddd\L	.	.	.	.	.
.	.	.	.	.	.	.	.	.	.	.	.	16dd\	.	.	.	.	.	.	.
8G\J	.	.	.	.	.	.	.	.	.	.	.	16dd\	.	.	.	.	.	.	.
.	.	.	.	.	.	.	.	.	.	.	.	16dd\JJ	.	16ddd\Jk	.	.	.	.	.
=164	=164	=164	=164	=164	=164	=164	=164	=164	=164	=164	=164	=164	=164	=164	=164	=164	=164	=164	=164
8F#\L	6	.	4F#\	Do-	4d\	Do-	4a\	do-	4dd\	do-	.	16dd\LL	.	4aa\	.	2d\_	.	2d\_	.
.	.	.	.	.	.	.	.	.	.	.	.	16dd\	.	.	.	.	.	.	.
8F#\	.	.	.	.	.	.	.	.	.	.	.	16dd\	.	.	.	.	.	.	.
.	.	.	.	.	.	.	.	.	.	.	.	16dd\	.	.	.	.	.	.	.
8F#\	.	.	4F#\	-na	4d\	-na	4a\	-na	4dd\	-na	.	16dd\	.	8.ddd\L	.	.	.	.	.
.	.	.	.	.	.	.	.	.	.	.	.	16dd\	.	.	.	.	.	.	.
8F#\J	.	.	.	.	.	.	.	.	.	.	.	16dd\	.	.	.	.	.	.	.
.	.	.	.	.	.	.	.	.	.	.	.	16dd\JJ	.	16ddd\Jk	.	.	.	.	.
=165	=165	=165	=165	=165	=165	=165	=165	=165	=165	=165	=165	=165	=165	=165	=165	=165	=165	=165	=165
!	!	!	!LO:LB:g=original	!	!	!	!	!	!	!	!	!	!	!	!	!LO:LB:g=original	!	!LO:LB:g=original	!
8G\L	.	.	4G\	no-	4d\	no-	4b\	no-	4dd\	no-	.	16dd\LL	.	4bb\	.	2d\_	.	2d\_	.
.	.	.	.	.	.	.	.	.	.	.	.	16dd\	.	.	.	.	.	.	.
8G\	.	.	.	.	.	.	.	.	.	.	.	16dd\	.	.	.	.	.	.	.
.	.	.	.	.	.	.	.	.	.	.	.	16dd\	.	.	.	.	.	.	.
8G\	.	.	4G\	-bis	4d\	-bis	4b\	-bis	4dd\	-bis	.	16dd\	.	8.ddd\L	.	.	.	.	.
.	.	.	.	.	.	.	.	.	.	.	.	16dd\	.	.	.	.	.	.	.
8G\J	.	.	.	.	.	.	.	.	.	.	.	16dd\	.	.	.	.	.	.	.
.	.	.	.	.	.	.	.	.	.	.	.	16dd\JJ	.	16ddd\Jk	.	.	.	.	.
=166	=166	=166	=166	=166	=166	=166	=166	=166	=166	=166	=166	=166	=166	=166	=166	=166	=166	=166	=166
8A\L	6 4	.	2A\	pa-	2f#\	pa-	2a\	pa-	2dd\	pa-	.	16dd\LL 16ff#	.	16ff#\LL	.	(2d\]	.	(2d\] 2f#	.
.	.	.	.	.	.	.	.	.	.	.	.	16dd\ 16ff#	.	16ddd\	.	.	.	.	.
8A\	.	.	.	.	.	.	.	.	.	.	.	16dd\ 16ff#	.	16ff#\	.	.	.	.	.
.	.	.	.	.	.	.	.	.	.	.	.	16dd\ 16ff#	.	16ddd\JJ	.	.	.	.	.
*	*	*	*	*	*	*	*	*	*	*	*	*	*	*rep	*	*	*	*	*
8A\	.	.	.	.	.	.	.	.	.	.	.	16dd\ 16ff#	.	16ff#\LL	.	.	.	.	.
.	.	.	.	.	.	.	.	.	.	.	.	16dd\ 16ff#	.	16ddd\	.	.	.	.	.
8A\J	.	.	.	.	.	.	.	.	.	.	.	16dd\ 16ff#	.	16ff#\	.	.	.	.	.
.	.	.	.	.	.	.	.	.	.	.	.	16dd\JJ 16ff#	.	16ddd\JJ	.	.	.	.	.
*	*	*	*	*	*	*	*	*	*	*	*	*	*	*Xrep	*	*	*	*	*
=167	=167	=167	=167	=167	=167	=167	=167	=167	=167	=167	=167	=167	=167	=167	=167	=167	=167	=167	=167
!	!	!	!	!	!	!	!	!	!	!	!	!	!	!	!	!LO:N:vis=1	!	!	!
8AA/L	5 3	.	2AA/	.	2e\	.	2a\	.	2cc#\	.	.	16cc#\LL 16ee	.	16ee\LL	.	2A/)	.	2A/) 2e	.
.	.	.	.	.	.	.	.	.	.	.	.	16cc#\ 16ee	.	16ccc#\	.	.	.	.	.
8AA/	.	.	.	.	.	.	.	.	.	.	.	16cc#\ 16ee	.	16ee\	.	.	.	.	.
.	.	.	.	.	.	.	.	.	.	.	.	16cc#\ 16ee	.	16ccc#\JJ	.	.	.	.	.
*	*	*	*	*	*	*	*	*	*	*	*	*	*	*rep	*	*	*	*	*
8AA/	.	.	.	.	.	.	.	.	.	.	.	16cc#\ 16ee	.	16ee\LL	.	.	.	.	.
.	.	.	.	.	.	.	.	.	.	.	.	16cc#\ 16ee	.	16ccc#\	.	.	.	.	.
8AA/J	.	.	.	.	.	.	.	.	.	.	.	16cc#\ 16ee	.	16ee\	.	.	.	.	.
.	.	.	.	.	.	.	.	.	.	.	.	16cc#\JJ 16ee	.	16ccc#\JJ	.	.	.	.	.
*Xtremolo	*	*	*	*	*	*	*	*	*	*	*	*Xtremolo	*	*Xrep	*	*	*	*	*
=168	=168	=168	=168	=168	=168	=168	=168	=168	=168	=168	=168	=168	=168	=168	=168	=168	=168	=168	=168
4D\	.	.	4D\	-cem	4f#\	-cem	4a\	-cem	4dd\	-cem	.	8dd\L	.	8dd'\L	.	4F#/	.	4F#/ 4d	.
.	.	.	.	.	.	.	.	.	.	.	.	8cc#\	.	8ee'\	.	.	.	.	.
4r	.	.	4r	.	4r	.	4r	.	4r	.	.	8dd\	.	8ff#'\	.	4r	.	4r	.
.	.	.	.	.	.	.	.	.	.	.	.	8ee\J	.	8gg'\J	.	.	.	.	.
=169	=169	=169	=169	=169	=169	=169	=169	=169	=169	=169	=169	=169	=169	=169	=169	=169	=169	=169	=169
!	!	!	!LO:TX:a:t=8	!	!LO:TX:a:t=8.	!	!	!	!LO:TX:a:t=8.	!	!	!LO:LB:g=original	!LO:DY:t=p.	!	!LO:DY:t=p.	!LO:TX:a:t=12.	!	!LO:TX:a:t=12	!
!	!	!	!LO:N:vis=00	!	!LO:N:vis=00	!	!	!	!LO:N:vis=00	!	!	!	!LO:DY:b	!	!LO:DY:b	!	!	!	!
4D\	.	.	0r	.	0r	.	4.a\	do-	0r	.	.	4.ff#\	p	4.aa\	p	2r	.	2r	.
4DD/	.	.	.	.	.	.	.	.	.	.	.	.	.	.	.	.	.	.	.
.	.	.	.	.	.	.	16f#\LL	-na	.	.	.	16dd\LL	.	16ff#\LL	.	.	.	.	.
.	.	.	.	.	.	.	16g\JJ	.	.	.	.	16ee\JJ	.	16gg\JJ	.	.	.	.	.
=170	=170	=170	=170	=170	=170	=170	=170	=170	=170	=170	=170	=170	=170	=170	=170	=170	=170	=170	=170
!	!	!	!	!	!	!	!	!	!	!	!	!	!	!LO:LB:g=original	!	!	!	!	!
4r	.	.	.	.	.	.	8a\L	no-	.	.	.	8ff#\L	.	8aa`\L	.	2r	.	2r	.
.	.	.	.	.	.	.	8f#\J	.	.	.	.	8dd\	.	(8ff#\	.	.	.	.	.
!LO:TX:a:t=Solo	!	!	!	!	!	!	!	!	!	!	!	!	!	!	!	!	!	!	!
4BB/	.	p	.	.	.	.	8b\L	-bis	.	.	.	8gg\	.	8bb\	.	.	.	.	.
.	.	.	.	.	.	.	8g\J	.	.	.	.	8ff#\J	.	8aa\J)	.	.	.	.	.
=171	=171	=171	=171	=171	=171	=171	=171	=171	=171	=171	=171	=171	=171	=171	=171	=171	=171	=171	=171
4E\	4	.	.	.	.	.	8a\L	pa-	.	.	.	8ff#\L	.	(8aa\L	.	2r	.	2r	.
.	3	.	.	.	.	.	8g\	.	.	.	.	8ee\	.	8gg\)	.	.	.	.	.
4EE/	.	.	.	.	.	.	8f#\	.	.	.	.	8dd#X\	.	8ff#`\	.	.	.	.	.
.	.	.	.	.	.	.	8e\J	.	.	.	.	8ee\J	.	8ee`\J	.	.	.	.	.
=172	=172	=172	=172	=172	=172	=172	=172	=172	=172	=172	=172	=172	=172	=172	=172	=172	=172	=172	=172
.	.	.	.	.	.	.	8qqd#X/	.	.	.	.	.	.	8qqdd#X/	.	.	.	.	.
8E\L	.	.	.	.	.	.	4e\	-cem	.	.	.	4ee\	.	4ee\	.	2r	.	2r	.
8D\	.	.	.	.	.	.	.	.	.	.	.	.	.	.	.	.	.	.	.
8C#\	.	.	.	.	.	.	4r	.	.	.	.	4r	.	4r	.	.	.	.	.
8BB\J	.	.	.	.	.	.	.	.	.	.	.	.	.	.	.	.	.	.	.
=173	=173	=173	=173	=173	=173	=173	=173	=173	=173	=173	=173	=173	=173	=173	=173	=173	=173	=173	=173
!	!	!	!LO:N:vis=00	!	!LO:N:vis=00	!	!	!	!LO:N:vis=00	!	!	!	!	!	!	!	!	!	!
4AA/	7	.	0r	.	0r	.	4.g\	do-	0r	.	.	4.ee\	.	4.gg\	.	2r	.	2r	.
4A\	.	.	.	.	.	.	.	.	.	.	.	.	.	.	.	.	.	.	.
.	.	.	.	.	.	.	16e\LL	-na	.	.	.	16cc#\LL	.	16ee\LL	.	.	.	.	.
!	!	!	!	!	!	!	!	!	!	!	!	!LO:TX:a:t=SIC:s=16dd	!	!	!	!	!	!	!
.	.	.	.	.	.	.	16f#\JJ	.	.	.	.	16ee\JJ	.	16ff#\JJ	.	.	.	.	.
=174	=174	=174	=174	=174	=174	=174	=174	=174	=174	=174	=174	=174	=174	=174	=174	=174	=174	=174	=174
4r	.	.	.	.	.	.	8g\L	no-	.	.	.	8ee\L	.	8gg`\L	.	2r	.	2r	.
.	.	.	.	.	.	.	8e\J	.	.	.	.	8cc#\	.	(8ee\	.	.	.	.	.
4AA/	7	.	.	.	.	.	8a\L	-bis	.	.	.	8ff#\	.	8aa\	.	.	.	.	.
.	.	.	.	.	.	.	8f#\J	.	.	.	.	8ee\J	.	8gg\J)	.	.	.	.	.
=175	=175	=175	=175	=175	=175	=175	=175	=175	=175	=175	=175	=175	=175	=175	=175	=175	=175	=175	=175
4D\	4	.	.	.	.	.	8g\L	pa-	.	.	.	8ee\L	.	(8gg\L	.	2r	.	2r	.
.	.	.	.	.	.	.	8f#\	.	.	.	.	8dd\	.	8ff#\)	.	.	.	.	.
4DD/	3	.	.	.	.	.	8e\	.	.	.	.	8cc#\	.	8ee`\	.	.	.	.	.
.	.	.	.	.	.	.	8d\J	.	.	.	.	8dd\J	.	8dd`\J	.	.	.	.	.
=176	=176	=176	=176	=176	=176	=176	=176	=176	=176	=176	=176	=176	=176	=176	=176	=176	=176	=176	=176
.	.	.	.	.	.	.	8qqc#/	.	.	.	.	.	.	8qqcc#/	.	.	.	.	.
8r	.	.	.	.	.	.	4d\	-cem	.	.	.	4dd\	.	4dd\	.	2r	.	2r	.
8G\L	.	.	.	.	.	.	.	.	.	.	.	.	.	.	.	.	.	.	.
8F#\	.	.	.	.	.	.	4r	.	.	.	.	4r	.	4r	.	.	.	.	.
8E\J	.	.	.	.	.	.	.	.	.	.	.	.	.	.	.	.	.	.	.
=177	=177	=177	=177	=177	=177	=177	=177	=177	=177	=177	=177	=177	=177	=177	=177	=177	=177	=177	=177
!LO:LB:g=original	!	!	!	!	!	!	!	!	!LO:LB:g=original	!	!	!	!LO:DY:t=for	!	!LO:DY:t=for	!	!	!	!
!	!	!	!	!	!	!	!	!	!LO:TX:a:t=SIC:s=4.a	!	!	!	!LO:DY:b	!	!LO:DY:b	!	!	!	!
*tremolo	*	*	*	*	*	*	*	*	*	*	*	*tremolo	*	*	*	*	*	*	*
8F#\L	6	f	4.F#\	Do-	4.d\	Do-	4.d\	Do-	4.g\	Do-	.	8a/L	f	4.dd\	f	2r	.	2r	.
8F#\	.	.	.	.	.	.	.	.	.	.	.	8a/	.	.	.	.	.	.	.
8F#\	.	.	.	.	.	.	.	.	.	.	.	8a/	.	.	.	.	.	.	.
!	!	!	!	!	!	!	!	!	!LO:TX:a:t=SIC:s=8a	!	!	!	!	!	!	!	!	!	!
8F#\J	.	.	8F#\	-na	8d\	-na	16e\LL	-na	8g\	-na	.	8a/J	.	16ee\LL	.	.	.	.	.
.	.	.	.	.	.	.	16f#\JJ	.	.	.	.	.	.	16ff#\JJ	.	.	.	.	.
=178	=178	=178	=178	=178	=178	=178	=178	=178	=178	=178	=178	=178	=178	=178	=178	=178	=178	=178	=178
8G\L	6	.	4G\	no-	4B\	no-	8f#\L	no-	4b\	no-	.	8b/L	.	(8ff#\L	.	2r	.	2r	.
8G\	.	.	.	.	.	.	8e\J	.	.	.	.	8b/	.	8ee\J)	.	.	.	.	.
8G\	.	.	4G\	-bis	4B\	-bis	4e\	-bis	4b\	-bis	.	8b/	.	4ee\	.	.	.	.	.
8G\J	.	.	.	.	.	.	.	.	.	.	.	8b/J	.	.	.	.	.	.	.
=179	=179	=179	=179	=179	=179	=179	=179	=179	=179	=179	=179	=179	=179	=179	=179	=179	=179	=179	=179
!	!	!	!	!	!LO:LB:g=original	!	!	!	!	!	!	!	!	!	!	!	!	!	!
8A\L	5	.	4.A\	pa-	4.e\	pa-	4.e\	do-	4.cc#\	pa-	.	8cc#\L	.	4.ee\	.	2r	.	2r	.
8A\	7	.	.	.	.	.	.	.	.	.	.	8cc#\	.	.	.	.	.	.	.
8A\	.	.	.	.	.	.	.	.	.	.	.	8cc#\	.	.	.	.	.	.	.
8A\J	.	.	8A\	-cem	8e\	-cem	8a\	-na	8cc#\	-cem	.	8cc#\J	.	8aa\	.	.	.	.	.
=180	=180	=180	=180	=180	=180	=180	=180	=180	=180	=180	=180	=180	=180	=180	=180	=180	=180	=180	=180
!	!	!	!	!	!	!	!LO:TX:a:t=problem: takt dopisany niżej	!	!	!	!	!	!	!	!	!	!	!	!
8B\L	5	.	4B\	pa-	4d\	pa-	8g\L	no-	4dd\	{pa-	.	8dd\L	.	(8gg\L	.	2r	.	2r	.
8B\	.	.	.	.	.	.	8f#\J	.	.	.	.	8dd\	.	8ff#\J)	.	.	.	.	.
8B\	.	.	4B\	-cem	4d\	-cem	4f#\	.	4dd\	-cem}	.	8dd\	.	4ff#\	.	.	.	.	.
8B\J	.	.	.	.	.	.	.	.	.	.	.	8dd\J	.	.	.	.	.	.	.
=181	=181	=181	=181	=181	=181	=181	=181	=181	=181	=181	=181	=181	=181	=181	=181	=181	=181	=181	=181
8F#\L	6	.	4.F#\	Do-	4.d\	Do-	4.a\	do-	4.dd\	Do-	.	8dd\L	.	4.aa\	.	2d\	.	2d\ 2f#	.
8F#\	.	.	.	.	.	.	.	.	.	.	.	8dd\	.	.	.	.	.	.	.
8F#\	.	.	.	.	.	.	.	.	.	.	.	8dd\	.	.	.	.	.	.	.
8F#\J	.	.	8F#\	-na	8A\	-na	8dd\	-na	8dd\	-na	.	8dd\J	.	8ddd\	.	.	.	.	.
=182	=182	=182	=182	=182	=182	=182	=182	=182	=182	=182	=182	=182	=182	=182	=182	=182	=182	=182	=182
!	!	!	!	!	!	!	!	!	!	!	!	!	!	!LO:LB:g=original	!	!	!	!	!
8G\L	.	.	4G\	no-	4B\	no-	8cc#\L	no-	4dd\	no-	.	8dd\L	.	8ccc#\L	.	4d\	.	4d\ 4f#	.
8G\	.	.	.	.	.	.	8b\J	.	.	.	.	8dd\	.	8bb\	.	.	.	.	.
8G\	.	.	4G\	-bis	4B\	-bis	8a\L	-bis	4dd\	-biʃ	.	8dd\	.	8aa\	.	4r	.	4r	.
8G\J	.	.	.	.	.	.	8g\J	.	.	.	.	8dd\J	.	8gg\J	.	.	.	.	.
*Xtremolo	*	*	*	*	*	*	*	*	*	*	*	*Xtremolo	*	*	*	*	*	*	*
=183	=183	=183	=183	=183	=183	=183	=183	=183	=183	=183	=183	=183	=183	=183	=183	=183	=183	=183	=183
!	!	!	!	!	!	!	!LO:LB:g=original	!	!	!	!	!	!	!	!	!	!LO:DY:t=fo	!	!LO:DY:t=for
!LO:TX:a:t=problem: mixed beam	!	!	!	!	!	!	!	!	!	!	!	!	!	!	!	!	!LO:DY:b	!	!LO:DY:b
8A\L	4	.	4A\	pa-	2A\	pa-	4f#\	pa-	(4dd\	pa-	.	4dd\	.	8ff#\L	.	4d\	f	4d\ 4f#	f
8A\	.	.	.	.	.	.	.	.	.	.	.	.	.	8dd\J	.	.	.	.	.
!	!	!	!	!	!	!	!LO:TX:a:t=SIC:s=4e	!	!	!	!	!	!	!	!	!	!	!	!
8AA/	3	.	4AA/	.	.	.	4f#\	.	4cc#\)	.	.	4cc#\	.	8ee\L	.	4A/	.	4A/ 4e	.
8AA/J	.	.	.	.	.	.	.	.	.	.	.	.	.	8cc#\J	.	.	.	.	.
=184	=184	=184	=184	=184	=184	=184	=184	=184	=184	=184	=184	=184	=184	=184	=184	=184	=184	=184	=184
4D\	.	.	4D\	-cem	4A\	-cem	4d\	-cem	4dd\	-cem	.	4dd\	.	4dd\	.	4F#/	.	4F#/ 4d	.
4r	.	.	4r	.	4r	.	4r	.	4r	.	.	8.a\L 8.aa	.	8.a\L 8.aa	.	4r	.	4r	.
.	.	.	.	.	.	.	.	.	.	.	.	16aa\Jk	.	16a\Jk 16aa	.	.	.	.	.
=185	=185	=185	=185	=185	=185	=185	=185	=185	=185	=185	=185	=185	=185	=185	=185	=185	=185	=185	=185
!	!	!	!LO:LB:g=original	!	!	!	!	!	!	!	!	!	!	!	!	!	!	!	!
4r	.	.	4r	.	4r	.	4r	.	4r	.	.	4a\ 4aa	.	4a\ 4aa	.	4r	.	4r	.
4A\	7	.	4A\	pa-	4A\	pa-	4e\	pa-	4cc#\	pa-	.	16aa\LL	.	(16aa\LL	.	4A/	.	4A/ 4e	.
.	.	.	.	.	.	.	.	.	.	.	.	16gg\	.	16gg\	.	.	.	.	.
.	.	.	.	.	.	.	.	.	.	.	.	16ff#\	.	16ee\	.	.	.	.	.
.	.	.	.	.	.	.	.	.	.	.	.	16ee\JJ	.	16cc#\JJ)	.	.	.	.	.
=186	=186	=186	=186	=186	=186	=186	=186	=186	=186	=186	=186	=186	=186	=186	=186	=186	=186	=186	=186
!	!	!	!	!	!	!	!	!	!	!	!	!LO:LB:g=original	!	!	!	!	!	!	!
*	*	*	*	*	*	*	*	*	*	*	*	*	*	*	*	*	*	*^	*
4D\	.	.	4D\	-cem	4A\	-cem	4f#\	-cem	4dd\	-cem	.	4dd\	.	4dd\	.	4d\	.	4f#/	4d\	.
4r	.	.	4r	.	4r	.	4r	.	4r	.	.	8.a\L 8.aa	.	8.a\L 8.aa	.	4r	.	4r	4ryy	.
.	.	.	.	.	.	.	.	.	.	.	.	16a\Jk 16aa	.	16a\Jk 16aa	.	.	.	.	.	.
*	*	*	*	*	*	*	*	*	*	*	*	*	*	*	*	*	*	*v	*v	*
=187	=187	=187	=187	=187	=187	=187	=187	=187	=187	=187	=187	=187	=187	=187	=187	=187	=187	=187	=187
4r	.	.	4r	.	4r	.	4r	.	4r	.	.	4aa\	.	4a\ 4aa	.	4r	.	4r	.
4A\	7	.	4A\	pa-	4c#\	pa-	4a\	pa-	4ee\	{pa-	.	16aa\LL	.	(16aa\LL	.	4A/	.	4A/ 4e	.
.	.	.	.	.	.	.	.	.	.	.	.	16gg\	.	16gg\	.	.	.	.	.
.	.	.	.	.	.	.	.	.	.	.	.	16ff#\	.	16ee\	.	.	.	.	.
.	.	.	.	.	.	.	.	.	.	.	.	16ee\JJ	.	16cc#\JJ)	.	.	.	.	.
=188	=188	=188	=188	=188	=188	=188	=188	=188	=188	=188	=188	=188	=188	=188	=188	=188	=188	=188	=188
4D\	.	.	4D\	-cem	4d\	-cem	4a\	-cem	4ff#\	-cem}	.	4dd\	.	4dd\	.	4F#/	.	4F#/ 4d	.
4A\	.	.	4A\	pa-	4e\	pa-	4a\	pa-	4cc#\	pa-	.	4a\ 4ee	.	4a/ 4ee	.	4A/	.	4A/ 4e	.
=189	=189	=189	=189	=189	=189	=189	=189	=189	=189	=189	=189	=189	=189	=189	=189	=189	=189	=189	=189
*	*	*	*	*	*	*	*	*	*	*	*	*	*	*	*	*	*	*^	*
!	!	!	!	!	!	!	!	!	!	!	!	!LO:TX:b:t=w Gostyniu Dnia 13go Pazdziernika\n1818	!	!LO:TX:b:t=we Wszystkich podarunkach nie Osobliwość tylko (?)	!	!	!	!	!	!
!	!	!	!	!	!	!	!	!	!LO:TX:b:t=w Gostyniu D. 17go Pazdziernika 1818	!	!	!LO:TX:b:t=Finis	!	!LO:TX:b:t=Finis z Gostynia 15 Pazdzier\nNiku 1818	!	!	!	!	!	!
4D\	.	.	4D\	-cem	4f#\	-cem	4a\	-cem	4dd\	-cem	.	4d/ 4a 4ff#	.	4d/ 4a 4ff#	.	4d\	.	4f#/	4d\	.
!	!	!	!	!	!	!	!	!	!	!	!	!	!	!	!	!LO:TX:b:t=Amen.	!	!	!	!
4r	.	.	4r	.	4r	.	4r	.	4r	.	.	4r	.	4r	.	4r	.	4r	4ryy	.
*	*	*	*	*	*	*	*	*	*	*	*	*	*	*	*	*	*	*v	*v	*
==	==	==	==	==	==	==	==	==	==	==	==	==	==	==	==	==	==	==	==
*-	*-	*-	*-	*-	*-	*-	*-	*-	*-	*-	*-	*-	*-	*-	*-	*-	*-	*-	*-
!!!system-decoration: [g1][g2][g3]{g4}
!!!ENC: Anna Matuszewska
!!!END: 2020-05-19
